( Made using CamBam - http://www.cambam.co.uk )
( bmf 3/16/2017 3:44:33 PM )
( T4 : 2.0 )
( T11 : 0.3 )
( T117 : 0.9 )
( T121 : 0.5 )
G21 G90 G91.1 G64 G40
M1013
( T11 : 0.3 )
T11 M6
( Profile1 )
G17
M07
M3 S24000
G0 Z3.0
G0 X4.1998 Y15.4652
G0 Z0.285
G1 F300.0 Z-0.125
G1 F500.0 X4.7687
G3 X4.8313 Y15.4092 I0.1273 J0.0794
G3 X4.8869 Y15.347 I0.1352 J0.065
G1 Y15.333
G1 Y15.2626
G1 Y15.2488
G3 X4.8311 Y15.1863 I0.0795 J-0.1272
G3 X4.7687 Y15.1307 I0.0647 J-0.1353
G1 X4.1998
G1 Y15.1922
G1 Y15.2626
G1 Y15.3332
G1 Y15.4036
G1 Y15.4652
G0 Z3.0
G0 Y14.0547
G0 Z0.285
G1 F300.0 Z-0.125
G1 F500.0 X4.9096
G3 X5.0283 Y13.9843 I0.1273 J0.0794
G3 X5.0987 Y13.8658 I0.1497 J0.0088
G1 Y13.8609
G3 X5.0984 Y13.8521 I0.1497 J-0.0087
G1 Y13.7815
G1 Y13.7678
G3 X5.0425 Y13.7054 I0.0794 J-0.1273
G3 X4.9722 Y13.6349 I0.065 J-0.1352
G3 X4.9097 Y13.579 I0.0647 J-0.1353
G1 X4.1998
G1 Y13.6406
G1 Y13.7112
G1 Y13.7818
G1 Y13.8521
G1 Y13.9228
G1 Y13.9934
G1 Y14.0547
G0 Z3.0
G0 X8.6294 Y14.2843
G0 Z0.285
G1 F300.0 Z-0.125
G3 F500.0 X8.6425 Y14.3457 I-0.1369 J0.0613
G1 Y14.4101
G3 X8.6426 Y14.4163 I-0.1499 J0.0062
G1 Y14.4869
G1 Y14.5007
G3 X8.713 Y14.6279 I-0.0796 J0.1271
G1 Y14.6985
G1 Y14.7123
G3 X8.7835 Y14.8394 I-0.0795 J0.1272
G1 Y14.9101
G1 Y14.9742
G3 X8.7836 Y14.9804 I-0.1499 J0.0062
G1 Y14.9944
G3 X8.8098 Y15.0152 I-0.0795 J0.1272
G3 X8.8361 Y14.9944 I0.1057 J0.1064
G1 Y14.9804
G1 Y14.9101
G3 X8.9065 Y14.7829 I0.15 J0.0
G1 Y14.7688
G1 Y14.6985
G3 X8.9772 Y14.5711 I0.15 J0.0
G1 Y14.5572
G1 Y14.4869
G3 X9.0478 Y14.3596 I0.15 J0.0
G1 Y14.3457
G1 Y14.2843
G1 X8.6294
G0 Z3.0
G0 X18.4532 Y7.5897
G0 Z0.285
G1 F300.0 Z-0.125
G3 F500.0 X18.4272 Y7.5052 I0.124 J-0.0845
G1 Y7.4346
G1 Y7.3642
G1 Y7.2936
G1 Y7.223
G1 Y7.1526
G1 Y7.082
G1 Y7.0114
G1 Y6.9411
G1 Y6.8704
G1 Y6.7998
G1 Y6.7295
G1 Y6.6589
G1 Y6.5947
G3 X18.4271 Y6.5885 I0.1499 J-0.0062
G1 Y6.5179
G1 Y6.4473
G1 Y6.3769
G1 Y6.3063
G1 Y6.2357
G1 Y6.1653
G1 Y6.0947
G1 Y6.0241
G1 Y5.9538
G1 Y5.8831
G1 Y5.8125
G1 Y5.7422
G1 Y5.6716
G1 Y5.601
G1 Y5.5306
G1 Y5.46
G1 Y5.3894
G1 Y5.319
G1 Y5.2484
G1 Y5.178
G1 Y5.1074
G1 Y5.0368
G1 Y4.9665
G1 Y4.8959
G1 Y4.8252
G1 Y4.7549
G1 Y4.6843
G1 Y4.6137
G1 Y4.5433
G1 Y4.4727
G1 Y4.4021
G1 Y4.3317
G1 Y4.2611
G1 Y4.1907
G1 Y4.1201
G1 Y4.0495
G1 Y3.9792
G1 Y3.9086
G1 Y3.8379
G1 Y3.7676
G1 Y3.697
G1 Y3.6264
G1 Y3.556
G1 Y3.4854
G3 X18.5771 Y3.3354 I0.15 J0.0
G1 X19.8465
G3 X19.9965 Y3.4854 I0.0 J0.15
G1 Y3.556
G1 Y3.6266
G1 Y3.697
G1 Y3.7676
G1 Y3.8382
G1 Y3.9086
G1 Y3.9792
G1 Y4.0498
G1 Y4.1201
G1 Y4.1907
G1 Y4.2614
G1 Y4.3317
G1 Y4.4023
G1 Y4.4727
G1 Y4.5433
G1 Y4.6139
G1 Y4.6843
G1 Y4.7549
G1 Y4.8255
G1 Y4.8959
G1 Y4.9574
G1 X21.3274
G3 X21.4774 Y5.1074 I0.0 J0.15
G1 Y5.178
G1 Y5.2487
G1 Y5.319
G1 Y5.3896
G1 Y5.46
G1 Y5.5306
G1 Y5.6012
G1 Y5.6716
G1 Y5.7422
G1 Y5.8128
G1 Y5.8831
G1 Y5.9538
G1 Y6.0244
G3 X21.3274 Y6.1744 I-0.15 J0.0
G1 X19.9965
G1 Y6.236
G1 Y6.3063
G1 Y6.3769
G1 Y6.4383
G1 X21.6097
G3 X21.7597 Y6.5883 I0.0 J0.15
G1 Y6.6589
G1 Y6.7295
G1 Y6.8001
G1 Y6.8704
G1 Y6.9411
G1 Y7.0117
G1 Y7.082
G1 Y7.1526
G1 Y7.2233
G1 Y7.2936
G1 Y7.3642
G1 Y7.4348
G1 Y7.5052
G3 X21.6097 Y7.6552 I-0.15 J0.0
G1 X18.5772
G3 X18.4532 Y7.5897 I0.0 J-0.15
G0 Z3.0
G0 X24.0162 Y5.9675
G0 Z0.285
G1 F300.0 Z-0.125
G3 F500.0 X24.0425 Y5.9883 I-0.0794 J0.1273
G3 X24.0688 Y5.9675 I0.1057 J0.1065
G1 Y5.9538
G3 X24.0689 Y5.9476 I0.15 J0.0
G1 Y5.8831
G3 X24.1395 Y5.7559 I0.15 J0.0
G1 Y5.7422
G1 Y5.6716
G3 X24.2099 Y5.5445 I0.15 J0.0
G1 Y5.5306
G1 Y5.46
G3 X24.2804 Y5.3328 I0.15 J0.0
G1 Y5.319
G1 Y5.2574
G1 X23.8619
G3 X23.8751 Y5.319 I-0.1368 J0.0616
G1 Y5.3832
G3 X23.8753 Y5.3894 I-0.1499 J0.0062
G1 Y5.46
G1 Y5.4738
G3 X23.9457 Y5.601 I-0.0795 J0.1272
G1 Y5.6716
G1 Y5.6854
G3 X24.0161 Y5.8125 I-0.0796 J0.1271
G1 Y5.8831
G1 Y5.9476
G3 X24.0162 Y5.9538 I-0.1499 J0.0062
G1 Y5.9675
G0 Z3.0
G0 X22.7289 Y6.2926
G0 Z0.285
G1 F300.0 Z-0.125
G3 F500.0 X22.6583 Y6.1653 I0.0794 J-0.1273
G1 Y6.0947
G1 Y6.081
G3 X22.5878 Y5.9538 I0.0795 J-0.1272
G1 Y5.9399
G3 X22.5175 Y5.8128 I0.0796 J-0.1271
G1 Y5.7422
G1 Y5.7286
G3 X22.4467 Y5.6012 I0.0793 J-0.1273
G1 Y5.5306
G1 Y5.5168
G3 X22.3762 Y5.3896 I0.0795 J-0.1272
G1 Y5.319
G3 X22.3764 Y5.3128 I0.15 J0.0
G1 Y5.3052
G3 X22.3059 Y5.178 I0.0795 J-0.1272
G1 Y5.1074
G1 Y5.0937
G3 X22.2354 Y4.9665 I0.0795 J-0.1272
G1 Y4.8959
G1 Y4.8821
G3 X22.1649 Y4.7549 I0.0795 J-0.1272
G1 Y4.6843
G1 Y4.6706
G3 X22.0943 Y4.5433 I0.0794 J-0.1273
G1 Y4.4727
G1 Y4.4589
G3 X22.0238 Y4.3317 I0.0795 J-0.1272
G1 Y4.2611
G1 Y4.2473
G3 X21.9533 Y4.1201 I0.0795 J-0.1272
G1 Y4.0495
G1 Y4.0358
G3 X21.8827 Y3.9086 I0.0794 J-0.1273
G1 Y3.8948
G3 X21.8122 Y3.7676 I0.0795 J-0.1272
G1 Y3.697
G1 Y3.6833
G3 X21.7415 Y3.556 I0.0793 J-0.1273
G1 Y3.4854
G3 X21.8915 Y3.3354 I0.15 J0.0
G1 X23.161
G3 X23.311 Y3.4854 I0.0 J0.15
G1 Y3.4992
G3 X23.3815 Y3.6264 I-0.0795 J0.1272
G1 Y3.697
G1 Y3.7614
G3 X23.3816 Y3.7676 I-0.1499 J0.0062
G1 Y3.7813
G3 X23.4522 Y3.9086 I-0.0794 J0.1273
G1 Y3.9701
G1 X24.633
G1 Y3.9086
G3 X24.7036 Y3.7813 I0.15 J0.0
G1 Y3.7763
G3 X24.7034 Y3.7676 I0.1497 J-0.0087
G1 Y3.697
G1 Y3.6264
G3 X24.774 Y3.4991 I0.15 J0.0
G1 Y3.4854
G3 X24.924 Y3.3354 I0.15 J0.0
G1 X26.1935
G3 X26.3435 Y3.4854 I0.0 J0.15
G1 Y3.556
G3 X26.2729 Y3.6833 I-0.15 J0.0
G1 Y3.697
G1 Y3.7676
G3 X26.2025 Y3.8947 I-0.15 J0.0
G1 Y3.9086
G3 X26.1319 Y4.0358 I-0.15 J0.0
G1 Y4.0498
G1 Y4.1201
G3 X26.0614 Y4.2473 I-0.15 J0.0
G1 Y4.2614
G1 Y4.3317
G3 X25.9909 Y4.4589 I-0.15 J0.0
G1 Y4.4727
G1 Y4.5433
G3 X25.9203 Y4.6706 I-0.15 J0.0
G1 Y4.6843
G1 Y4.7549
G3 X25.8498 Y4.8821 I-0.15 J0.0
G1 Y4.8959
G1 Y4.9665
G3 X25.7794 Y5.0937 I-0.15 J0.0
G1 Y5.1013
G3 X25.7795 Y5.1074 I-0.1499 J0.0062
G1 Y5.178
G3 X25.7089 Y5.3053 I-0.15 J0.0
G1 Y5.319
G1 Y5.3896
G3 X25.6381 Y5.517 I-0.15 J0.0
G1 Y5.5306
G1 Y5.6012
G3 X25.5678 Y5.7283 I-0.15 J0.0
G1 Y5.7422
G1 Y5.8128
G3 X25.4972 Y5.9401 I-0.15 J0.0
G1 Y5.9538
G3 X25.4267 Y6.081 I-0.15 J0.0
G1 Y6.0947
G1 Y6.1653
G3 X25.3563 Y6.2925 I-0.15 J0.0
G1 Y6.3063
G1 Y6.3769
G3 X25.2857 Y6.5042 I-0.15 J0.0
G1 Y6.5179
G1 Y6.5885
G3 X25.2152 Y6.7157 I-0.15 J0.0
G1 Y6.7295
G1 Y6.8001
G3 X25.1446 Y6.9274 I-0.15 J0.0
G1 Y6.9411
G1 Y7.0117
G3 X25.0741 Y7.1389 I-0.15 J0.0
G1 Y7.1526
G1 Y7.2233
G3 X25.0036 Y7.3504 I-0.15 J0.0
G1 Y7.3642
G1 Y7.4348
G3 X24.9182 Y7.5702 I-0.15 J0.0
G3 X24.783 Y7.6552 I-0.1352 J-0.065
G1 X23.3022
G3 X23.167 Y7.5702 I0.0 J-0.15
G3 X23.0816 Y7.4348 I0.0646 J-0.1354
G1 Y7.3642
G1 Y7.3504
G3 X23.0111 Y7.2233 I0.0795 J-0.1272
G1 Y7.1526
G1 Y7.1389
G3 X22.9406 Y7.0117 I0.0795 J-0.1272
G1 Y6.9411
G1 Y6.9274
G3 X22.87 Y6.8001 I0.0794 J-0.1273
G1 Y6.7295
G1 Y6.7157
G3 X22.7995 Y6.5885 I0.0795 J-0.1272
G1 Y6.5179
G1 Y6.5042
G3 X22.7289 Y6.3769 I0.0794 J-0.1273
G1 Y6.3063
G1 Y6.2926
G0 Z3.0
G0 X26.4667
G0 Z0.285
G1 F300.0 Z-0.125
G1 F500.0 Y6.2357
G1 Y6.1653
G1 Y6.0947
G1 Y6.0241
G1 Y5.9538
G1 Y5.8831
G1 Y5.8125
G1 Y5.7422
G1 Y5.6716
G1 Y5.601
G1 Y5.5306
G1 Y5.46
G1 Y5.3894
G1 Y5.319
G1 Y5.2484
G1 Y5.178
G1 Y5.1074
G1 Y5.0368
G1 Y4.9665
G1 Y4.8959
G1 Y4.8252
G1 Y4.7549
G1 Y4.6843
G1 Y4.6137
G1 Y4.5433
G1 Y4.4727
G1 Y4.4021
G1 Y4.3317
G1 Y4.2611
G1 Y4.1907
G1 Y4.1201
G1 Y4.0495
G1 Y3.9792
G1 Y3.9086
G1 Y3.8379
G1 Y3.7676
G1 Y3.697
G1 Y3.6264
G1 Y3.556
G1 Y3.4854
G3 X26.6167 Y3.3354 I0.15 J0.0
G1 X27.8862
G3 X28.0362 Y3.4854 I0.0 J0.15
G1 Y3.556
G1 Y3.6266
G1 Y3.697
G1 Y3.7676
G1 Y3.8382
G1 Y3.9086
G1 Y3.9792
G1 Y4.0498
G1 Y4.1201
G1 Y4.1907
G1 Y4.2614
G1 Y4.3317
G1 Y4.4023
G1 Y4.4727
G1 Y4.5433
G1 Y4.6139
G1 Y4.6843
G1 Y4.7549
G1 Y4.8255
G1 Y4.8958
G1 Y4.9665
G1 Y5.0371
G1 Y5.1074
G1 Y5.178
G1 Y5.2487
G1 Y5.319
G1 Y5.3896
G1 Y5.46
G1 Y5.5306
G1 Y5.6012
G1 Y5.6716
G1 Y5.7422
G1 Y5.8128
G1 Y5.8831
G1 Y5.9538
G1 Y6.0244
G1 Y6.0947
G1 Y6.1653
G1 Y6.236
G1 Y6.3063
G1 Y6.3769
G1 Y6.4475
G1 Y6.5179
G1 Y6.5885
G1 Y6.6589
G1 Y6.7295
G1 Y6.8001
G1 Y6.8704
G1 Y6.9411
G1 Y7.0117
G1 Y7.082
G1 Y7.1526
G1 Y7.2233
G1 Y7.2936
G1 Y7.3642
G1 Y7.4348
G1 Y7.5052
G3 X27.8862 Y7.6552 I-0.15 J0.0
G1 X26.6167
G3 X26.4667 Y7.5052 I0.0 J-0.15
G1 Y7.4346
G1 Y7.3642
G1 Y7.2936
G1 Y7.223
G1 Y7.1526
G1 Y7.082
G1 Y7.0114
G1 Y6.9411
G1 Y6.8704
G1 Y6.7998
G1 Y6.7295
G1 Y6.6589
G1 Y6.5883
G1 Y6.5179
G1 Y6.4473
G1 Y6.3769
G1 Y6.3063
G1 Y6.2926
G0 Z3.0
G0 X30.2223
G0 Z0.285
G1 F300.0 Z-0.125
G1 F500.0 Y6.3063
G1 Y6.3769
G1 Y6.4383
G1 X30.8617
G3 X30.9888 Y6.3679 I0.1271 J0.0796
G1 X31.0027
G3 X31.0506 Y6.32 I0.1273 J0.0794
G1 Y6.3063
G1 Y6.2357
G1 Y6.1715
G3 X31.0505 Y6.1653 I0.1499 J-0.0062
G1 Y6.1516
G3 X30.9947 Y6.0891 I0.0795 J-0.1272
G3 X30.9321 Y6.0331 I0.0647 J-0.1353
G1 X30.9185
G3 X30.7914 Y5.9628 I0.0 J-0.15
G1 X30.2223
G1 Y6.0244
G1 Y6.0947
G1 Y6.1653
G1 Y6.236
G1 Y6.2926
G0 Z3.0
G0 Y7.6552
G0 Z0.285
G1 F300.0 Z-0.125
G1 F500.0 X28.8028
G3 X28.6528 Y7.5052 I0.0 J-0.15
G1 Y7.4346
G3 X28.653 Y7.4284 I0.15 J0.0
G1 Y7.3729
G3 X28.6527 Y7.3642 I0.1497 J-0.0087
G1 Y7.2936
G3 X28.6528 Y7.2874 I0.15 J0.0
G1 Y7.223
G1 Y7.1526
G3 X28.653 Y7.1465 I0.15 J0.0
G1 Y7.0908
G3 X28.6527 Y7.082 I0.1497 J-0.0087
G1 Y7.0114
G3 X28.6528 Y7.0052 I0.15 J0.0
G1 Y6.9411
G1 Y6.8704
G1 Y6.7998
G1 Y6.7295
G1 Y6.6589
G1 Y6.5883
G1 Y6.5179
G1 Y6.4473
G1 Y6.3769
G1 Y6.3063
G1 Y6.2357
G1 Y6.1653
G1 Y6.0947
G1 Y6.0241
G1 Y5.9538
G1 Y5.8831
G1 Y5.8125
G1 Y5.7483
G3 X28.6527 Y5.7422 I0.1499 J-0.0062
G1 Y5.6716
G1 Y5.601
G3 X28.653 Y5.5922 I0.15 J0.0
G1 Y5.5368
G3 X28.6528 Y5.5306 I0.1499 J-0.0062
G1 Y5.46
G1 Y5.3958
G3 X28.6527 Y5.3896 I0.1499 J-0.0062
G1 Y5.319
G3 X28.653 Y5.3103 I0.15 J0.0
G1 Y5.2548
G3 X28.6528 Y5.2487 I0.1499 J-0.0062
G1 Y5.178
G1 Y5.1074
G1 Y5.0368
G1 Y4.9665
G1 Y4.8959
G1 Y4.8252
G1 Y4.7549
G1 Y4.6843
G1 Y4.6137
G1 Y4.5433
G1 Y4.4727
G1 Y4.4021
G1 Y4.3317
G1 Y4.2611
G1 Y4.1907
G1 Y4.1201
G1 Y4.0495
G1 Y3.9792
G1 Y3.9086
G1 Y3.8379
G1 Y3.7676
G1 Y3.697
G1 Y3.6264
G1 Y3.556
G1 Y3.4854
G3 X28.8028 Y3.3354 I0.15 J0.0
G1 X30.0723
G3 X30.2223 Y3.4854 I0.0 J0.15
G1 Y3.556
G1 Y3.6266
G1 Y3.697
G1 Y3.7676
G1 Y3.8382
G1 Y3.9086
G1 Y3.9792
G1 Y4.0498
G1 Y4.1201
G1 Y4.1907
G1 Y4.2614
G1 Y4.3317
G1 Y4.4023
G1 Y4.4727
G1 Y4.5433
G1 Y4.6139
G1 Y4.6843
G1 Y4.7549
G1 Y4.8255
G1 Y4.8868
G1 X30.2976
G3 X30.36 Y4.8311 I0.1271 J0.0796
G3 X30.4307 Y4.7605 I0.1353 J0.0647
G3 X30.5009 Y4.6901 I0.1353 J0.0647
G3 X30.5569 Y4.6275 I0.1353 J0.0648
G1 Y4.6137
G3 X30.6276 Y4.4864 I0.15 J0.0
G1 Y4.4727
G3 X30.7125 Y4.3375 I0.15 J0.0
G3 X30.7685 Y4.2748 I0.1354 J0.0646
G1 Y4.2611
G3 X30.8388 Y4.1341 I0.15 J0.0
G1 Y4.1201
G3 X30.9242 Y3.9847 I0.15 J0.0
G3 X30.9801 Y3.9223 I0.1353 J0.0648
G1 Y3.9086
G3 X31.0505 Y3.7814 I0.15 J0.0
G1 Y3.7676
G3 X31.1356 Y3.6323 I0.15 J0.0
G3 X31.1917 Y3.5696 I0.1354 J0.0646
G1 Y3.556
G3 X31.2768 Y3.4208 I0.15 J0.0
G3 X31.4122 Y3.3354 I0.1354 J0.0646
G1 X32.6817
G3 X32.8317 Y3.4854 I0.0 J0.15
G1 Y3.556
G3 X32.8315 Y3.5622 I-0.15 J0.0
G1 Y3.6266
G3 X32.7611 Y3.7538 I-0.15 J0.0
G1 Y3.7676
G3 X32.6756 Y3.903 I-0.15 J0.0
G3 X32.62 Y3.9653 I-0.1353 J-0.0648
G1 Y3.9792
G3 X32.5494 Y4.1064 I-0.15 J0.0
G1 Y4.1201
G3 X32.4642 Y4.2554 I-0.15 J0.0
G3 X32.4084 Y4.3179 I-0.1354 J-0.0646
G1 Y4.3317
G3 X32.3378 Y4.459 I-0.15 J0.0
G1 Y4.4727
G3 X32.2528 Y4.6079 I-0.15 J0.0
G3 X32.1968 Y4.6706 I-0.1354 J-0.0646
G1 Y4.6843
G3 X32.1117 Y4.8195 I-0.15 J0.0
G3 X32.0558 Y4.8821 I-0.1354 J-0.0646
G1 Y4.8959
G3 X31.9705 Y5.0312 I-0.15 J0.0
G3 X31.8999 Y5.1018 I-0.1353 J-0.0647
G3 X31.836 Y5.169 I-0.1353 J-0.0647
G3 X31.9623 Y5.2394 I-0.0007 J0.15
G1 X31.9763
G3 X32.1116 Y5.3247 I0.0 J0.15
G3 X32.1823 Y5.3954 I-0.0647 J0.1353
G3 X32.2527 Y5.4657 I-0.0649 J0.1352
G3 X32.3378 Y5.601 I-0.0649 J0.1352
G1 Y5.615
G3 X32.4083 Y5.7422 I-0.0795 J0.1272
G1 Y5.7559
G3 X32.4789 Y5.8831 I-0.0794 J0.1273
G1 Y5.9538
G1 Y6.0179
G3 X32.479 Y6.0241 I-0.1499 J0.0062
G1 Y6.0382
G3 X32.5495 Y6.1653 I-0.0795 J0.1272
G1 Y6.236
G1 Y6.3063
G1 Y6.3769
G1 Y6.4475
G1 Y6.5179
G3 X32.4789 Y6.6452 I-0.15 J0.0
G1 Y6.6589
G1 Y6.7295
G1 Y6.8001
G1 Y6.8704
G3 X32.4083 Y6.9977 I-0.15 J0.0
G1 Y7.0117
G3 X32.323 Y7.147 I-0.15 J0.0
G3 X32.2528 Y7.2172 I-0.1352 J-0.065
G3 X32.1823 Y7.2879 I-0.1354 J-0.0646
G3 X32.1115 Y7.3587 I-0.1354 J-0.0646
G3 X31.9763 Y7.4436 I-0.1352 J-0.065
G1 X31.9625
G3 X31.8352 Y7.5142 I-0.1273 J-0.0794
G1 X31.8215
G3 X31.6942 Y7.5848 I-0.1273 J-0.0794
G1 X31.3277
G3 X31.2006 Y7.6552 I-0.1271 J-0.0796
G1 X30.2223
G1 F300.0 Y7.7616
G1 F500.0 X31.2515
G1 X31.338 Y7.7257
G3 X31.5123 Y7.691 I0.1743 J0.4201
G1 X31.7453
G1 X31.8557 Y7.6453
G3 X31.9432 Y7.597 I0.262 J0.3717
G1 X31.9962 Y7.575
G3 X32.085 Y7.5261 I0.2625 J0.3714
G1 X32.1216 Y7.5109
G1 X32.2577 Y7.3749
G1 X32.3192 Y7.3134
G3 X32.3287 Y7.3037 I0.3305 J0.3124
G1 X32.3991 Y7.2335
G1 X32.4685 Y7.1639
G3 X32.4757 Y7.1568 I0.3222 J0.321
G1 X32.4907 Y7.1203
G3 X32.5397 Y7.0315 I0.4203 J0.1738
G1 X32.5853 Y6.9215
G1 Y6.8296
G3 X32.62 Y6.6553 I0.4548 J0.0
G1 X32.6559 Y6.5688
G1 Y6.1145
G1 X32.62 Y6.028
G3 X32.5853 Y5.8537 I0.4201 J-0.1743
G1 Y5.8321
G1 X32.5397 Y5.7221
G3 X32.4909 Y5.6336 I0.3713 J-0.2626
G1 X32.481 Y5.6097
G1 X32.4785 Y5.6036
G1 X32.4691 Y5.581
G3 X32.4207 Y5.4933 I0.3716 J-0.2622
G1 X32.4051 Y5.4558
G1 X32.3982 Y5.4489
G1 X32.337 Y5.3876
G3 X32.2384 Y4.8919 I0.3216 J-0.3216
G1 X32.2795 Y4.7926
G3 X32.3781 Y4.6451 I0.4202 J0.1741
G1 X32.3986 Y4.6246
G1 X32.4051 Y4.6181
G1 X32.4207 Y4.5806
G3 X32.4691 Y4.4929 I0.42 J0.1745
G1 X32.4909 Y4.4403
G3 X32.5894 Y4.2928 I0.4202 J0.1741
G1 X32.6103 Y4.272
G1 X32.6168 Y4.2655
G1 X32.632 Y4.2288
G3 X32.6805 Y4.1406 I0.4203 J0.1738
G1 X32.7023 Y4.0878
G3 X32.8015 Y3.9396 I0.4203 J0.1738
G1 X32.8285 Y3.9126
G1 X32.8436 Y3.8762
G3 X32.8921 Y3.788 I0.4203 J0.1738
G1 X32.9378 Y3.6775
G1 Y3.4343
G1 X32.8988 Y3.3401
G1 X32.8268 Y3.2682
G1 X32.7324 Y3.229
G1 X31.3613
G1 X31.2669 Y3.2682
G1 X31.2175 Y3.3175
G1 X31.131 Y3.4039
G1 X31.1186 Y3.4163
G3 X30.3015 Y3.3689 I-0.3971 J-0.2218
G1 X30.2896 Y3.3403
G1 X30.2666 Y3.3173
G1 X30.2174 Y3.2681
G1 X30.1232 Y3.229
G1 X28.752
G1 X28.6569 Y3.2685
G3 X28.0317 Y3.2683 I-0.3125 J-0.3304
G1 X27.9368 Y3.229
G1 X26.5654
G3 X26.2447 I-0.1604 J-0.4256
G1 X24.8733
G1 X24.7788 Y3.2682
G1 X24.7297 Y3.3173
G1 X24.7069 Y3.3401
G1 X24.6918 Y3.3767
G3 X24.6426 Y3.4659 I-0.4203 J-0.1738
G1 X24.5942 Y3.5828
G3 X24.1739 Y3.8637 I-0.4203 J-0.1739
G1 X23.9113
G3 X23.4913 Y3.5833 I0.0 J-0.4548
G1 X23.4423 Y3.4653
G3 X23.3935 Y3.3767 I0.3715 J-0.2624
G1 X23.3784 Y3.3402
G1 X23.3557 Y3.3175
G1 X23.3062 Y3.2682
G1 X23.2119 Y3.229
G1 X21.8408
G1 X21.7463 Y3.2682
G1 X21.6972 Y3.3173
G1 X21.6743 Y3.3401
G1 X21.6354 Y3.4343
G1 Y3.605
G1 Y3.6073
G1 X21.6713 Y3.6944
G3 X21.7019 Y3.8093 I-0.4204 J0.1735
G1 X21.7514 Y3.9286
G3 X21.7996 Y4.0158 I-0.3715 J0.2624
G1 X21.8087 Y4.0375
G1 X21.8099 Y4.0404
G1 X21.8118 Y4.045
G3 X21.8432 Y4.1624 I-0.4197 J0.1752
G1 X21.8681 Y4.2225
G3 X21.4478 Y4.851 I-0.4203 J0.1737
G1 X20.5577
G3 X20.1029 Y4.3962 I0.0 J-0.4548
G1 Y4.2141
G1 Y3.605
G1 Y3.4343
G1 X20.064 Y3.3403
G1 X20.0412 Y3.3175
G1 X19.9918 Y3.2682
G1 X19.8974 Y3.229
G1 X18.5262
G1 X18.4319 Y3.2681
G1 X18.3598 Y3.3403
G1 X18.3207 Y3.4345
G1 Y7.5561
G1 X18.3598 Y7.6504
G1 X18.4319 Y7.7227
G1 X18.526 Y7.7616
G1 X21.6606
G1 X21.7548 Y7.7226
G1 X21.827 Y7.6504
G1 X21.866 Y7.5562
G1 Y6.9703
G3 X22.7409 Y6.796 I0.4548 J0.0
G1 X22.7995 Y6.9375
G3 X22.8305 Y7.0537 I-0.4201 J0.1742
G1 X22.8702 Y7.1498
G3 X22.9008 Y7.2647 I-0.4204 J0.1735
G1 X22.9405 Y7.3604
G3 X22.9715 Y7.4767 I-0.4201 J0.1743
G1 X23.0142 Y7.5798
G1 X23.1504 Y7.716
G1 X23.157 Y7.7226
G1 X23.2512 Y7.7616
G1 X24.8341
G1 X24.9283 Y7.7226
G1 X25.0643 Y7.5865
G1 X25.0708 Y7.5801
G1 X25.1138 Y7.4763
G3 X25.1447 Y7.3608 I0.451 J0.0586
G1 X25.1844 Y7.2649
G3 X25.2151 Y7.1498 I0.451 J0.0584
G1 X25.2376 Y7.0951
G3 X25.2445 Y7.0785 I0.4237 J0.1652
G1 X25.2547 Y7.0537
G3 X25.2857 Y6.9374 I0.4511 J0.058
G1 X25.3254 Y6.8419
G3 X25.3561 Y6.7264 I0.4511 J0.0582
G1 X25.3957 Y6.6306
G3 X25.4267 Y6.5146 I0.4511 J0.0582
G1 X25.4424 Y6.4767
G1 X25.4854 Y6.3731
G3 X26.3603 Y6.5474 I0.4201 J0.1742
G1 Y6.651
G1 Y7.2603
G1 Y7.5562
G1 X26.3993 Y7.6504
G1 X26.4714 Y7.7226
G1 X26.5656 Y7.7616
G1 X27.937
G1 X28.0314 Y7.7226
G3 X28.6572 Y7.7224 I0.313 J0.33
G1 X28.7518 Y7.7616
G1 X30.2223
G0 Z3.0
G0 X33.1711 Y14.2843
G0 Z0.285
G1 F300.0 Z-0.125
G3 F500.0 X33.1842 Y14.3457 I-0.1369 J0.0613
G1 Y14.4163
G3 X33.1841 Y14.4224 I-0.15 J0.0
G1 Y14.4869
G1 Y14.5007
G3 X33.2546 Y14.6279 I-0.0795 J0.1272
G1 Y14.6985
G1 Y14.7122
G3 X33.3252 Y14.8394 I-0.0794 J0.1273
G1 Y14.9101
G1 Y14.9807
G3 X33.3251 Y14.9868 I-0.15 J0.0
G1 Y14.9944
G3 X33.3514 Y15.0154 I-0.0795 J0.1272
G3 X33.3776 Y14.9945 I0.1059 J0.1063
G1 Y14.9804
G1 Y14.9101
G3 X33.4484 Y14.7827 I0.15 J0.0
G1 Y14.7688
G1 Y14.6985
G3 X33.519 Y14.5712 I0.15 J0.0
G1 Y14.5572
G1 Y14.4869
G3 X33.5892 Y14.3599 I0.15 J0.0
G1 Y14.3457
G1 Y14.2843
G1 X33.1711
G0 Z3.0
G0 X22.3058 Y15.1782
G0 Z0.285
G1 F300.0 Z-0.125
G3 F500.0 X22.2501 Y15.1161 I0.0795 J-0.1272
G3 X22.1874 Y15.0601 I0.0646 J-0.1354
G1 X22.1738
G3 X22.0465 Y14.9894 I0.0 J-0.15
G1 X21.4776
G1 Y15.051
G1 Y15.1216
G1 Y15.1922
G1 Y15.2626
G1 Y15.3332
G1 Y15.4036
G1 Y15.4652
G1 X22.117
G3 X22.2443 Y15.3945 I0.1273 J0.0794
G1 X22.2582
G3 X22.3059 Y15.3469 I0.1271 J0.0796
G1 Y15.333
G1 Y15.2626
G1 Y15.1984
G3 X22.3058 Y15.1922 I0.1499 J-0.0062
G1 Y15.1782
G0 Z3.0
G0 X46.0191
G0 Z0.285
G1 F300.0 Z-0.125
G1 F500.0 Y15.1922
G1 Y15.2626
G1 Y15.3332
G1 Y15.4036
G1 Y15.4652
G1 X46.6585
G3 X46.7858 Y15.3945 I0.1273 J0.0794
G1 X46.7999
G3 X46.8474 Y15.3471 I0.1271 J0.0796
G1 Y15.333
G1 Y15.2626
G1 Y15.192
G3 X46.8475 Y15.1858 I0.15 J0.0
G1 Y15.1782
G3 X46.7918 Y15.1161 I0.0795 J-0.1272
G3 X46.7291 Y15.0601 I0.0646 J-0.1354
G1 X46.7153
G3 X46.588 Y14.9894 I0.0 J-0.15
G1 X46.0191
G1 Y15.051
G1 Y15.1216
G1 Y15.1782
G0 Z3.0
G0 X46.4189 Y25.2217
G0 Z0.285
G1 F300.0 Z-0.125
G3 F500.0 X46.5309 Y25.2655 I0.006 J0.1499
G1 X48.0864 Y26.821
G3 Y27.0331 I-0.1061 J0.1061
G1 X45.5413 Y29.5782
G3 X45.3292 I-0.1061 J-0.1061
G1 X43.7737 Y28.0227
G3 Y27.8106 I0.1061 J-0.1061
G1 X46.3188 Y25.2655
G3 X46.4189 Y25.2217 I0.1061 J0.1061
G1 F300.0 Y25.1149
G1 F500.0 X46.3738
G1 X46.2796 Y25.1539
G1 X43.662 Y27.7718
G1 X43.6229 Y27.866
G1 Y27.9677
G1 X43.662 Y28.062
G1 X45.2898 Y29.6898
G1 X45.384 Y29.7288
G1 X45.4861
G1 X45.5803 Y29.6898
G1 X46.3944 Y28.8758
G3 X46.4046 Y28.8655 I0.3267 J0.3164
G1 X47.6101 Y27.6602
G3 X47.6259 Y27.6444 I0.3294 J0.3136
G1 X48.198 Y27.0723
G1 X48.237 Y26.9779
G1 Y26.8757
G1 X48.198 Y26.7816
G1 X47.2808 Y25.8644
G3 X47.2688 Y25.8525 I0.3155 J-0.3275
G1 X46.5701 Y25.1539
G1 X46.4759 Y25.1149
G1 X46.4189
G0 Z3.0
G0 X8.5824 Y45.3383
G0 Z0.285
G1 F300.0 Z-0.125
G3 F500.0 X8.6001 Y45.409 I-0.1323 J0.0707
G1 Y46.409
G3 X8.4501 Y46.559 I-0.15 J0.0
G1 X6.7991
G3 X6.6491 Y46.409 I0.0 J-0.15
G1 Y45.409
G3 X6.7991 Y45.259 I0.15 J0.0
G1 X8.4501
G3 X8.5824 Y45.3383 I0.0 J0.15
G1 F300.0 X8.6813 Y45.2972
G1 F500.0 X8.6673 Y45.2636
G1 X8.5952 Y45.1914
G1 X8.501 Y45.1525
G1 X6.7479
G1 X6.6536 Y45.1914
G1 X6.5817 Y45.2635
G1 X6.5427 Y45.3578
G1 Y46.4599
G1 X6.5817 Y46.5542
G1 X6.6536 Y46.6263
G1 X6.7479 Y46.6652
G1 X8.501
G1 X8.5952 Y46.6263
G1 X8.6673 Y46.5541
G1 X8.7065 Y46.4597
G1 Y45.358
G1 X8.6813 Y45.2972
G0 Z3.0
G0 X8.5008 Y43.4654
G0 Z0.285
G1 F300.0 Z-0.125
G1 F500.0 X8.5952 Y43.4262
G1 X8.6674 Y43.3541
G1 X8.7065 Y43.2598
G1 Y43.2044
G1 Y42.595
G1 Y42.1581
G1 X8.6673 Y42.0637
G1 X8.5952 Y41.9916
G1 X8.496 Y41.9505
G3 X8.0842 Y41.4978 I0.0429 J-0.4528
G1 Y41.3766
G1 Y40.7675
G1 Y40.2554
G1 X8.0141 Y40.0864
G1 X7.8029 Y39.8752
G3 X7.7937 Y39.866 I0.317 J-0.3261
G1 X7.1891 Y39.2613
G1 X7.0069 Y39.079
G1 X6.8135 Y38.8858
G1 X6.6444 Y38.8157
G1 X5.2395
G3 X4.9181 Y38.6826 I0.0 J-0.4548
G1 X4.8963 Y38.6608
G3 X4.8791 Y38.6437 I0.3128 J-0.3302
G1 X4.6074 Y38.3722
G3 X4.4741 Y38.0505 I0.3215 J-0.3217
G1 Y37.658
G3 X5.2505 Y37.3364 I0.4548 J0.0
G1 X5.2584 Y37.3443
G1 X5.7107 Y37.5317
G1 X6.2009
G1 X6.6532 Y37.3443
G1 X7.0056 Y36.992
G3 X7.4021 Y36.76 I0.3965 J0.2228
G1 X10.5336
G3 X10.8552 Y36.8932 I0.0 J0.4548
G1 X11.3528 Y37.3908
G3 X11.3709 Y37.4089 I-0.3124 J0.3305
G1 X11.971 Y38.009
G1 X12.0958 Y38.1338
G3 X12.229 Y38.4553 I-0.3216 J0.3216
G1 Y38.9397
G1 Y39.5491
G1 Y40.7675
G1 Y41.3766
G1 Y41.9859
G1 Y42.595
G1 Y43.2044
G1 Y44.4228
G1 Y44.9381
G1 X12.2989 Y45.107
G1 X13.1117 Y45.9198
G3 X13.1298 Y45.9379 I-0.3124 J0.3305
G1 X13.222 Y46.0301
G1 X13.3056 Y46.1134
G3 X13.3809 Y46.2125 I-0.3211 J0.3221
G3 X13.4313 Y46.2301 I-0.1238 J0.4376
G1 X13.5846 Y46.2936
G1 X14.5052
G3 X14.96 Y46.7484 I0.0 J0.4548
G1 Y46.8597
G1 Y47.1157
G1 X14.999 Y47.2099
G1 X15.0711 Y47.2821
G1 X15.1653 Y47.3211
G1 X17.6675
G1 X17.7617 Y47.2821
G1 X17.8338 Y47.2099
G1 X17.8728 Y47.1157
G1 Y46.8597
G1 Y46.2504
G1 Y45.6413
G1 Y45.0319
G1 Y44.6136
G1 X17.8697 Y44.606
G3 X17.862 Y44.5875 I0.4163 J-0.1832
G1 X17.8339 Y44.5195
G1 X17.7617 Y44.4474
G1 X17.6673 Y44.4082
G1 X15.1655
G1 X15.0711 Y44.4474
G1 X14.9989 Y44.5195
G1 X14.9708 Y44.5875
G3 X14.9631 Y44.606 I-0.424 J-0.1646
G1 X14.96 Y44.6136
G1 Y44.9196
G3 X14.5052 Y45.3744 I-0.4548 J0.0
G1 X14.0546
G3 X13.7329 Y45.2411 I0.0 J-0.4548
G1 X13.2813 Y44.7893
G3 X13.1482 Y44.4678 I0.3217 J-0.3215
G1 Y44.4228
G1 Y43.8135
G1 Y43.2044
G1 Y42.595
G1 Y41.9859
G1 Y41.3766
G1 Y40.7675
G1 Y40.1582
G1 Y39.5491
G1 Y38.3306
G1 Y37.985
G1 X13.115 Y37.9049
G3 X13.107 Y37.8857 I0.4161 J-0.1836
G1 X13.0783 Y37.8162
G1 X12.8849 Y37.6231
G1 Y37.623
G1 X11.1726 Y35.9108
G1 X11.0037 Y35.8408
G1 X7.4021
G3 X7.0053 Y35.6083 I0.0 J-0.4548
G1 X7.0031 Y35.6061
G1 X6.6533 Y35.2565
G1 X6.2695 Y35.0975
G3 X6.2597 Y35.0934 I0.1692 J-0.4222
G1 X6.2242 Y35.0787
G3 X6.0767 Y34.337 I0.1741 J-0.4202
G1 X6.256 Y34.1576
G1 X6.4491 Y33.9646
G1 X6.4792 Y33.8919
G1 X6.519 Y33.7957
G1 Y33.4569
G1 Y32.8475
G1 Y32.2384
G1 Y31.6291
G1 Y31.02
G1 Y30.4107
G1 Y29.8016
G1 Y29.1922
G1 Y28.5831
G1 Y27.9738
G1 Y27.3644
G1 Y26.7553
G1 Y26.146
G1 Y25.667
G3 X6.6522 Y25.3454 I0.4548 J0.0
G1 X6.7823 Y25.2153
G1 X6.9998 Y24.9978
G1 X7.0956 Y24.7665
G3 X7.1063 Y24.7406 I0.4253 J0.1611
G1 X7.1873 Y24.5452
G1 Y24.3185
G1 Y24.0554
G1 X7.116 Y23.8832
G1 X6.9998 Y23.6028
G1 X6.8186 Y23.4218
G1 X6.6532 Y23.2565
G1 X6.2008 Y23.0689
G1 X5.7108
G1 X5.2582 Y23.2565
G1 X5.1915 Y23.3231
G3 X4.4154 Y23.0012 I-0.3213 J-0.3219
G1 Y22.4907
G1 Y21.8816
G1 Y21.2722
G1 Y20.8714
G3 X4.8702 Y20.4166 I0.4548 J0.0
G1 X5.5314
G1 X5.6065 Y20.3416
G1 X6.2067 Y19.7414
G3 X6.2248 Y19.7233 I0.3305 J0.3124
G1 X6.4256 Y19.5225
G1 Y19.4447
G1 Y18.8354
G1 Y18.2579
G1 X6.1061 Y17.9385
G1 X5.5913 Y17.4237
G3 X5.7395 Y16.6816 I0.3216 J-0.3216
G1 X5.762 Y16.6723
G3 X5.8508 Y16.6234 I0.2626 J0.3713
G1 X5.9036 Y16.6016
G3 X5.9911 Y16.5533 I0.262 J0.3717
G1 X6.0283 Y16.5378
G1 X6.1647 Y16.4016
G1 X6.2351 Y16.3313
G1 X6.3057 Y16.2603
G3 X6.3061 Y16.26 I0.1063 J0.1059
G1 X6.3122 Y16.2539
G1 X6.3206 Y16.2335
G3 X6.328 Y16.2158 I0.4238 J0.165
G3 X6.3764 Y16.1285 I0.4195 J0.1756
G1 X6.4217 Y16.0188
G1 Y15.9974
G3 X6.4565 Y15.8231 I0.4548 J0.0
G1 X6.4924 Y15.7366
G1 Y15.574
G3 X7.3674 Y15.4002 I0.4548 J0.0
G1 X7.4258 Y15.5414
G3 X7.4567 Y15.6572 I-0.4203 J0.1738
G1 X7.4964 Y15.753
G3 X7.5272 Y15.8689 I-0.4202 J0.1741
G1 X7.5668 Y15.9646
G3 X7.5976 Y16.0802 I-0.4203 J0.1738
G1 X7.6372 Y16.1757
G3 X7.6683 Y16.2921 I-0.4201 J0.1743
G1 X7.7078 Y16.3878
G3 X7.7386 Y16.5033 I-0.4203 J0.1738
G1 X7.7816 Y16.607
G1 X7.7881 Y16.6135
G1 X7.9241 Y16.7493
G1 X8.0185 Y16.7885
G1 X8.7445
G3 X9.066 Y17.5649 I0.0 J0.4548
G1 X8.6922 Y17.9386
G1 X8.3727 Y18.258
G1 Y18.8354
G1 Y19.4447
G1 Y19.5225
G1 X8.5735 Y19.7233
G3 X8.5916 Y19.7414 I-0.3124 J0.3305
G1 X9.1918 Y20.3416
G1 X9.2669 Y20.4166
G1 X9.6891
G3 X10.0107 Y20.5498 I0.0 J0.4548
G1 X10.4026 Y20.9417
G3 X10.4207 Y20.9598 I-0.3124 J0.3305
G1 X11.0208 Y21.56
G1 X11.621 Y22.1602
G3 X11.6391 Y22.1783 I-0.3124 J0.3305
G1 X12.2393 Y22.7784
G1 X12.8395 Y23.3786
G3 X12.8575 Y23.3967 I-0.3124 J0.3305
G1 X13.4577 Y23.9969
G1 X14.0579 Y24.5971
G3 X14.076 Y24.6151 I-0.3124 J0.3305
G1 X14.3172 Y24.8564
G1 X14.6761 Y25.2153
G1 X14.6892 Y25.2283
G1 X15.0915 Y25.395
G1 X15.4333
G3 X15.7546 Y25.5279 I0.0 J0.4548
G1 X15.821 Y25.5943
G1 X16.1276 Y25.7213
G3 X16.1503 Y25.7307 I-0.1627 J0.4247
G1 X16.3823 Y25.8268
G1 X19.5294
G1 X19.763 Y25.73
G3 X19.7825 Y25.7219 I0.1838 J0.416
G1 X20.0903 Y25.5944
G1 X20.3383 Y25.3464
G3 X21.1147 Y25.668 I0.3216 J0.3216
G1 Y26.146
G1 Y26.7553
G1 Y27.3644
G1 Y27.9738
G1 Y28.5831
G1 Y29.1922
G1 Y29.8016
G1 Y30.4107
G1 Y31.02
G1 Y31.6291
G1 Y32.2384
G1 Y32.8475
G1 Y33.4569
G1 Y34.066
G1 Y34.6753
G1 Y34.9326
G3 X20.3383 Y35.2542 I-0.4548 J0.0
G1 X20.0903 Y35.0063
G1 X19.5295 Y34.774
G1 X16.3822
G1 X15.8212 Y35.0063
G1 X15.3919 Y35.4356
G1 X15.3824 Y35.4585
G1 X15.1594 Y35.9967
G1 Y36.6039
G1 X15.3919 Y37.1649
G1 X15.6266 Y37.3997
G1 X15.8212 Y37.5943
G1 X16.3823 Y37.8268
G1 X19.5294
G1 X20.0903 Y37.5943
G1 X20.2849 Y37.3997
G1 X20.3383 Y37.3464
G3 X21.1147 Y37.6679 I0.3216 J0.3216
G1 Y37.7213
G1 Y38.3306
G1 Y38.8879
G1 X21.1675 Y39.0153
G3 X20.7475 Y39.6445 I-0.42 J0.1744
G1 X20.2394
G1 X20.1643 Y39.6755
G3 X19.8168 I-0.1738 J-0.4203
G1 X19.7418 Y39.6445
G1 X18.3396
G1 X18.2454 Y39.6834
G1 X18.1732 Y39.7557
G1 X18.1342 Y39.8498
G1 Y40.1582
G1 Y40.7675
G1 Y41.3766
G1 Y41.5519
G1 X18.1732 Y41.6461
G1 X18.1915 Y41.6644
G1 X18.2452 Y41.718
G1 X18.2998 Y41.7406
G3 X18.5789 Y42.1169 I-0.1736 J0.4204
G1 X18.651 Y42.291
G1 X19.2426 Y42.8828
G1 X19.4282 Y43.0684
G1 X19.6215 Y43.2615
G1 X19.7905 Y43.3315
G1 X19.9547
G3 X20.4095 Y43.7863 I0.0 J0.4548
G1 Y43.8135
G1 Y43.9534
G3 X19.9547 Y44.4082 I-0.4548 J0.0
G1 X19.5656
G1 X19.4712 Y44.4474
G1 X19.399 Y44.5195
G1 X19.3708 Y44.5875
G3 X19.3631 Y44.606 I-0.424 J-0.1646
G1 X19.36 Y44.6136
G1 Y45.0319
G1 Y45.6413
G1 Y46.2504
G1 Y46.8597
G1 Y47.1157
G1 X19.399 Y47.2099
G1 X19.4712 Y47.2821
G1 X19.5654 Y47.3211
G1 X22.0675
G1 X22.1617 Y47.2821
G1 X22.2339 Y47.2099
G1 X22.2729 Y47.1157
G1 Y46.8188
G3 X22.7277 Y46.364 I0.4548 J0.0
G1 X23.0998
G3 X23.4214 Y46.4972 I0.0 J0.4548
G1 X24.0645 Y47.1405
G3 X24.0781 Y47.1541 I-0.3148 J0.3283
G1 X24.57 Y47.6461
G3 X24.7032 Y47.9676 I-0.3216 J0.3216
G1 Y48.0781
G1 Y48.6872
G1 Y48.8403
G3 X24.2811 Y49.4646 I-0.422 J0.1695
G1 X13.999
G3 X13.6774 Y49.3314 I0.0 J-0.4548
G1 X13.3548 Y49.0088
G1 X13.07 Y48.7241
G3 X12.9368 Y48.4025 I0.3216 J-0.3216
G1 Y48.0781
G1 Y47.0286
G3 X12.9351 Y47.0242 I0.4223 J-0.1689
G1 X12.8933 Y46.9232
G3 X12.8606 Y46.8731 I0.3637 J-0.273
G3 X12.8105 Y46.8557 I0.1238 J-0.4376
G1 X12.7315 Y46.823
G1 X10.0896
G1 X9.9952 Y46.8622
G1 X9.923 Y46.9343
G1 X9.8858 Y47.0242
G3 X9.884 Y47.0286 I-0.424 J-0.1645
G1 Y47.4688
G1 Y48.0781
G1 Y48.4005
G1 X9.923 Y48.4947
G1 X9.9952 Y48.5668
G1 X10.1104 Y48.6145
G3 X9.9365 Y49.4895 I-0.1739 J0.4202
G1 X2.0828
G3 X1.628 Y49.0347 I0.0 J-0.4548
G1 Y48.6872
G1 Y48.0781
G1 Y47.4688
G1 Y46.9676
G3 X1.8832 Y46.559 I0.4548 J0.0
G1 X1.6449
G3 X1.4949 Y46.409 I0.0 J-0.15
G1 Y45.409
G3 X1.6449 Y45.259 I0.15 J0.0
G1 X1.8837
G3 X1.628 Y44.8501 I0.1991 J-0.4089
G1 Y44.4228
G1 Y43.9202
G3 X2.0828 Y43.4654 I0.4548 J0.0
G1 X3.3468
G1 X3.4412 Y43.4262
G1 X3.5134 Y43.3541
G1 X3.5523 Y43.26
G1 Y43.2044
G1 Y42.595
G1 Y42.1579
G1 X3.5516 Y42.1563
G1 X3.5133 Y42.0637
G1 X3.4412 Y41.9916
G1 X3.347 Y41.9526
G1 X2.0828
G3 X1.628 Y41.4978 I0.0 J-0.4548
G1 Y41.3766
G1 Y40.7675
G1 Y40.1582
G1 Y39.5491
G1 Y38.3306
G1 Y37.7213
G1 Y37.1122
G1 Y36.5028
G1 Y35.8938
G1 Y35.2844
G1 Y34.066
G1 Y33.4569
G1 Y32.8475
G1 Y32.2384
G1 Y32.2257
G3 X2.503 Y32.0518 I0.4548 J0.0
G1 X2.5052 Y32.0571
G3 X2.5113 Y32.0719 I-0.4171 J0.1813
G1 X2.6617 Y32.4349
G1 X2.745 Y32.5183
G3 X2.7604 Y32.5336 I-0.3137 J0.3292
G1 X3.0912 Y32.8643
G1 X3.5071 Y33.0367
G1 X3.6521 Y33.0968
G1 X4.0726
G3 X4.3905 Y33.2263 I0.0 J0.4548
G3 X4.6527 Y32.9339 I0.4365 J0.1277
G1 X4.8202 Y32.8644
G1 X4.8234 Y32.8612
G3 X5.5998 Y33.1828 I0.3216 J0.3216
G1 Y33.3253
G3 X5.468 Y33.6455 I-0.4548 J0.0
G1 X5.4396 Y33.6742
G3 X5.1166 Y33.8088 I-0.323 J-0.3202
G1 X4.827
G3 X4.5092 Y33.6793 I0.0 J-0.4548
G3 X4.3942 Y33.8732 I-0.4365 J-0.1277
G1 X4.1956 Y34.0718
G1 X3.8799 Y34.3876
G1 X3.6248 Y34.6426
G1 X3.5549 Y34.8115
G1 Y35.2844
G1 Y35.8938
G1 Y36.5028
G1 Y37.1122
G1 Y37.7213
G1 Y38.3306
G1 Y38.5206
G1 X3.6249 Y38.6896
G1 X3.818 Y38.8829
G1 X4.1626 Y39.2274
G1 X4.6002 Y39.6649
G1 X4.7691 Y39.7349
G1 X6.1745
G3 X6.4961 Y39.8681 I0.0 J0.4548
G1 X7.0318 Y40.4038
G3 X7.165 Y40.7253 I-0.3216 J0.3216
G1 Y40.7675
G1 Y41.3766
G1 Y41.4978
G3 X6.7528 Y41.9506 I-0.4548 J0.0
G1 X6.6536 Y41.9916
G1 X6.5817 Y42.0636
G1 X6.5427 Y42.1579
G1 Y42.595
G1 Y43.2044
G1 Y43.26
G1 X6.5817 Y43.3542
G1 X6.6536 Y43.4262
G1 X6.7481 Y43.4654
G1 X8.5008
G1 F300.0 X8.4791 Y43.356
G3 F500.0 X8.4501 Y43.3588 I-0.0291 J-0.1472
G1 X6.7991
G3 X6.6491 Y43.2088 I0.0 J-0.15
G1 Y42.2088
G3 X6.7991 Y42.0588 I0.15 J0.0
G1 X7.2714
G1 Y40.4929
G1 X6.4069 Y39.6285
G1 X4.8605
G3 X4.6108 Y39.525 I0.0 J-0.3532
G1 X3.7647 Y38.6789
G3 X3.6613 Y38.4292 I0.2498 J-0.2498
G1 Y34.9029
G3 X3.7647 Y34.6532 I0.3532 J0.0
G1 X4.3992 Y34.0187
G3 X4.649 Y33.9152 I0.2498 J0.2498
G1 X5.3489
G1 X5.7062 Y33.5578
G1 Y25.3974
G3 X5.3933 Y25.2747 I0.2496 J-1.0969
G3 Y23.3262 I0.5625 J-0.9743
G3 X7.0808 Y24.3004 I0.5625 J0.9743
G3 X6.4126 Y25.3285 I-1.125 J0.0
G1 Y33.704
G3 X6.3092 Y33.9537 I-0.3532 J0.0
G1 X5.7451 Y34.5181
G3 X5.4953 Y34.6216 I-0.2498 J-0.2497
G1 X4.7953
G1 X4.3677 Y35.0492
G1 Y38.2829
G1 X5.0068 Y38.9221
G1 X6.5532
G3 X6.803 Y39.0255 I0.0 J0.3532
G1 X7.8743 Y40.0969
G3 X7.9778 Y40.3466 I-0.2498 J0.2498
G1 Y42.0588
G1 X8.4501
G3 X8.6001 Y42.2088 I0.0 J0.15
G1 Y43.2088
G3 X8.4791 Y43.356 I-0.15 J0.0
G0 Z3.0
G0 X12.3354
G0 Z0.285
G1 F300.0 Z-0.125
G1 F500.0 Y38.2227
G1 X10.7661 Y36.6536
G1 X7.0239
G3 X5.3933 Y37.2747 I-1.0681 J-0.3532
G3 Y35.3261 I0.5625 J-0.9743
G3 X7.0239 Y35.9472 I0.5625 J0.9743
G1 X10.9123
G3 X11.1621 Y36.0506 I0.0 J0.3532
G1 X12.9383 Y37.8266
G3 X13.0418 Y38.0764 I-0.2497 J0.2498
G1 Y44.7002
G1 X13.8222 Y45.4808
G1 X15.0665
G1 Y44.6648
G3 X15.2165 Y44.5148 I0.15 J0.0
G1 X17.6166
G3 X17.7666 Y44.6648 I0.0 J0.15
G1 Y47.0648
G3 X17.6166 Y47.2148 I-0.15 J0.0
G1 X15.2165
G3 X15.0665 Y47.0648 I0.0 J-0.15
G1 Y46.1872
G1 X13.6759
G3 X13.4261 Y46.0838 I0.0 J-0.3532
G1 X12.4388 Y45.0962
G3 X12.3354 Y44.8465 I0.2498 J-0.2497
G1 Y43.356
G0 Z3.0
G0 Y46.9294
G0 Z0.285
G1 F300.0 Z-0.125
G1 F500.0 X12.6804
G3 X12.8304 Y47.0794 I0.0 J0.15
G1 Y48.3494
G3 X12.6943 Y48.4988 I-0.15 J0.0
G1 X13.7665 Y49.571
G1 X30.6664
G1 X31.2982 Y48.9392
G1 X30.9596
G3 X30.8096 Y48.7892 I0.0 J-0.15
G1 Y45.7892
G3 X30.9596 Y45.6392 I0.15 J0.0
G1 X31.3059
G1 Y42.7363
G1 X29.6235 Y41.0539
G1 X23.4785
G1 X21.7405
G1 Y41.5007
G3 X21.5905 Y41.6507 I-0.15 J0.0
G1 X20.2905
G3 X20.1405 Y41.5007 I0.0 J-0.15
G1 Y39.9007
G3 X20.2905 Y39.7507 I0.15 J0.0
G1 X21.5905
G3 X21.7405 Y39.9007 I0.0 J0.15
G1 Y40.3475
G1 X22.6257
G1 X21.3245 Y39.0465
G3 X21.2211 Y38.7967 I0.2497 J-0.2498
G1 Y22.6375
G1 X19.0974 Y20.5139
G3 X17.9429 Y19.6347 I-0.2425 J-0.8792
G1 Y18.1107
G3 X19.7669 I0.912 J0.0
G1 Y19.6347
G3 X19.655 Y20.0724 I-0.912 J0.0
G1 X21.824 Y22.2414
G3 X21.9275 Y22.4912 I-0.2498 J0.2498
G1 Y38.6504
G1 X23.6248 Y40.3475
G1 X29.7698
G3 X30.0196 Y40.451 I0.0 J0.3532
G1 X31.9088 Y42.3402
G3 X32.0123 Y42.59 I-0.2498 J0.2498
G1 Y45.6392
G1 X32.1594
G3 X32.3094 Y45.7892 I0.0 J0.15
G1 Y48.7892
G3 X32.1594 Y48.9392 I-0.15 J0.0
G1 X32.0123
G1 Y49.0779
G3 X31.9088 Y49.3276 I-0.3532 J0.0
G1 X31.0625 Y50.174
G3 X30.8127 Y50.2774 I-0.2498 J-0.2498
G1 X13.6202
G3 X13.3705 Y50.174 I0.0 J-0.3532
G1 X11.6959 Y48.4994
G1 X10.1404
G3 X9.9904 Y48.3494 I0.0 J-0.15
G1 Y47.0794
G3 X10.1404 Y46.9294 I0.15 J0.0
G1 X12.3354
G0 Z3.0
G0 X19.4663
G0 Z0.285
G1 F300.0 Z-0.125
G1 F500.0 Y44.6648
G3 X19.6163 Y44.5148 I0.15 J0.0
G1 X20.5159
G1 Y43.3709
G1 X20.3702 Y43.2251
G1 X19.8819
G3 X19.6321 Y43.1216 I0.0 J-0.3532
G1 X18.7909 Y42.2804
G3 X18.6874 Y42.0307 I0.2498 J-0.2498
G1 Y41.6507
G1 X18.3906
G3 X18.2406 Y41.5007 I0.0 J-0.15
G1 Y39.9007
G3 X18.3906 Y39.7507 I0.15 J0.0
G1 X19.6906
G3 X19.8406 Y39.9007 I0.0 J0.15
G1 Y41.5007
G3 X19.6906 Y41.6507 I-0.15 J0.0
G1 X19.3938
G1 Y41.8843
G1 X20.0282 Y42.5187
G1 X20.5166
G3 X20.7664 Y42.6222 I0.0 J0.3532
G1 X21.119 Y42.975
G3 X21.2223 Y43.2247 I-0.2498 J0.2497
G1 Y44.5148
G1 X22.0163
G3 X22.1663 Y44.6648 I0.0 J0.15
G1 Y45.5512
G1 X23.4785
G3 X23.7282 Y45.6547 I0.0 J0.3532
G1 X24.8096 Y46.736
G1 Y45.7892
G3 X24.9596 Y45.6392 I0.15 J0.0
G1 X25.2063
G1 Y45.2404
G1 X24.8161 Y44.8503
G3 X24.3508 Y44.7777 I-0.1388 J-0.6383
G3 Y43.6463 I0.3266 J-0.5657
G3 X25.3305 Y44.212 I0.3266 J0.5657
G3 X25.3156 Y44.3508 I-0.6532 J0.0
G1 X25.8093 Y44.8444
G3 X25.9127 Y45.0941 I-0.2498 J0.2498
G1 Y45.6392
G1 X26.1595
G3 X26.3095 Y45.7892 I0.0 J0.15
G1 Y48.7892
G3 X26.1595 Y48.9392 I-0.15 J0.0
G1 X24.9596
G3 X24.8096 Y48.7892 I0.0 J-0.15
G1 Y47.6383
G3 X24.6135 Y47.539 I0.0537 J-0.3491
G1 X23.3322 Y46.2576
G1 X22.1663
G1 Y47.0648
G3 X22.0163 Y47.2148 I-0.15 J0.0
G1 X19.6163
G3 X19.4663 Y47.0648 I0.0 J-0.15
G1 Y46.9294
G0 Z3.0
G0 X21.5041 Y44.3123
G0 Z0.285
G1 F300.0 Z-0.125
G3 F500.0 X21.3287 Y43.9534 I0.2794 J-0.3588
G1 Y43.8135
G1 Y43.2044
G1 Y43.1744
G3 X21.3334 Y43.1098 I0.4548 J0.0
G3 X21.2799 Y43.0149 I0.3666 J-0.2691
G1 X21.2589 Y42.9644
G1 X21.2114 Y42.9168
G1 X21.0655 Y42.7711
G1 X20.828 Y42.5336
G3 X21.1496 Y41.7572 I0.3216 J-0.3216
G1 X21.6416
G1 X21.6582 Y41.7503
G3 X21.8347 Y41.7158 I0.1739 J0.4203
G3 X21.8525 Y41.5442 I0.4531 J-0.0397
G3 X22.3017 Y41.1603 I0.4492 J0.0709
G1 X22.4348
G3 X22.609 Y42.0352 I0.0 J0.4548
G1 X22.4619 Y42.0962
G3 X22.2851 Y42.1309 I-0.1741 J-0.4201
G3 X22.2522 Y42.3447 I-0.4531 J0.0397
G1 X22.1548 Y42.5799
G1 Y42.595
G1 Y42.8407
G3 X22.1502 Y42.9053 I-0.4548 J0.0
G3 X22.2038 Y43.0005 I-0.3666 J0.2691
G1 X22.2138 Y43.0248
G3 X22.2186 Y43.0363 I-0.4178 J0.1796
G1 X22.2703 Y43.1612
G1 X22.4839 Y43.3748
G1 X22.5238 Y43.3913
G3 X22.5333 Y43.3953 I-0.1692 J0.4221
G1 X22.7632 Y43.4905
G1 X23.0654
G1 X23.2963 Y43.3948
G1 X23.3033 Y43.3919
G1 X23.3648 Y43.3664
G3 X23.6377 Y43.3426 I0.1741 J0.4201
G3 X23.6325 Y42.9818 I0.4148 J-0.1865
G1 X23.6739 Y42.8819
G1 Y42.8097
G3 X23.8071 Y42.4881 I0.4548 J0.0
G1 X23.8882 Y42.407
G3 X24.2098 Y42.2738 I0.3216 J0.3216
G1 X28.6451
G3 X29.0999 Y42.7286 I0.0 J0.4548
G1 Y43.2044
G1 Y45.0319
G1 Y45.1495
G3 X28.8196 Y45.5695 I-0.4548 J0.0
G1 X28.734 Y45.6051
G3 X28.385 I-0.1745 J-0.42
G1 X28.2994 Y45.5695
G3 X28.0191 Y45.1495 I0.1745 J-0.42
G1 Y45.0319
G1 Y44.464
G1 X27.9492 Y44.2951
G1 X27.8973 Y44.2433
G3 X27.7641 Y43.9217 I0.3216 J-0.3216
G1 Y43.8493
G1 X27.6484 Y43.57
G1 X27.6045 Y43.5261
G1 X27.4348 Y43.3565
G1 X27.1556 Y43.2408
G1 X26.8535
G1 X26.5742 Y43.3565
G1 X26.4121 Y43.5185
G3 X26.3972 Y43.5335 I-0.3289 J-0.3142
G1 X26.3605 Y43.5701
G1 X26.2171 Y43.916
G3 X25.3768 Y43.9157 I-0.4201 J-0.1742
G1 X25.3212 Y43.7815
G1 X25.1076 Y43.5679
G1 X24.8285 Y43.4524
G1 X24.5261
G1 X24.2263 Y43.5764
G3 X23.9538 Y43.6001 I-0.1738 J-0.4203
G3 X23.9593 Y43.9602 I-0.4148 J0.1865
G1 X23.9482 Y43.9871
G1 X23.9178 Y44.0607
G1 Y44.3631
G1 X24.0335 Y44.6422
G1 X24.1016 Y44.7103
G1 X24.1145 Y44.7233
G3 X24.2134 Y44.8715 I-0.3216 J0.3216
G3 X24.3668 Y44.9056 I-0.0206 J0.4543
G1 X24.5281 Y44.9724
G3 X24.7742 Y45.5667 I-0.174 J0.4202
G1 X24.7465 Y45.6335
G3 X24.0042 Y45.7804 I-0.4201 J-0.1741
G1 X23.9317 Y45.7077
G1 X23.8718 Y45.6481
G3 X23.7723 Y45.4992 I0.3209 J-0.3223
G3 X23.619 Y45.4651 I0.0206 J-0.4543
G1 X23.5878 Y45.4522
G1 X23.57 Y45.4448
G1 X22.7277
G3 X22.2729 Y44.99 I0.0 J-0.4548
G1 Y44.6136
G1 X22.2697 Y44.606
G3 X22.2621 Y44.5875 I0.4163 J-0.1832
G1 X22.2339 Y44.5195
G1 X22.1617 Y44.4474
G1 X22.0673 Y44.4082
G1 X21.7835
G3 X21.5041 Y44.3123 I0.0 J-0.4548
G0 Z3.0
G0 X22.4796 Y43.2184
G0 Z0.285
G1 F300.0 Z-0.125
G3 F500.0 X22.5878 Y42.1653 I0.4347 J-0.4875
G3 X23.0531 Y42.0927 I0.3266 J0.5657
G1 X23.5813 Y41.5645
G3 X23.831 Y41.461 I0.2498 J0.2498
G1 X29.1907
G3 X29.4404 Y41.5645 I0.0 J0.3532
G1 X29.8093 Y41.9333
G3 X29.9127 Y42.1831 I-0.2498 J0.2498
G1 Y45.6392
G1 X30.1595
G3 X30.3095 Y45.7892 I0.0 J0.15
G1 Y48.7892
G3 X30.1595 Y48.9392 I-0.15 J0.0
G1 X28.9596
G3 X28.8096 Y48.7892 I0.0 J-0.15
G1 Y45.7892
G3 X28.9596 Y45.6392 I0.15 J0.0
G1 X29.2063
G1 Y42.3294
G1 X29.0444 Y42.1674
G1 X23.9773
G1 X23.5526 Y42.5922
G3 X23.5675 Y42.7309 I-0.6383 J0.1388
G3 X22.5878 Y43.2966 I-0.6532 J0.0
G3 X22.4796 Y43.2184 I0.3266 J-0.5657
G0 Z3.0
G0 X23.6878 Y40.2084
G0 Z0.285
G1 F300.0 Z-0.125
G3 F500.0 X23.5356 Y40.1079 I0.1694 J-0.4221
G1 X23.4907 Y40.0629
G3 X23.5089 Y39.4025 I0.3216 J-0.3216
G1 X23.6069 Y39.3043
G3 X23.9288 Y39.1707 I0.3219 J0.3212
G1 X30.9611
G3 X31.3812 Y39.7996 I0.0 J0.4548
G1 X31.252 Y40.1115
G1 Y40.1582
G1 Y40.435
G3 X30.4757 Y40.7566 I-0.4548 J0.0
G1 X30.1988 Y40.4798
G1 X30.0301 Y40.3111
G1 X29.8612 Y40.2411
G1 X23.8572
G3 X23.6878 Y40.2084 I0.0 J-0.4548
G0 Z3.0
G0 X23.3554 Y39.3227
G0 Z0.285
G1 F300.0 Z-0.125
G3 F500.0 X22.7994 Y39.2768 I-0.2295 J-0.6115
G3 Y38.1455 I0.3266 J-0.5657
G3 X23.6754 Y38.3579 I0.3266 J0.5657
G1 X31.3715
G1 X33.2063 Y36.5232
G1 Y32.5392
G1 X32.9595
G3 X32.8095 Y32.3892 I0.0 J-0.15
G1 Y29.3892
G3 X32.9595 Y29.2392 I0.15 J0.0
G1 X34.1594
G3 X34.3094 Y29.3892 I0.0 J0.15
G1 Y32.3892
G3 X34.1594 Y32.5392 I-0.15 J0.0
G1 X33.9127
G1 Y36.6695
G3 X33.8092 Y36.9192 I-0.3532 J0.0
G1 X31.7676 Y38.9609
G3 X31.5178 Y39.0643 I-0.2498 J-0.2498
G1 X23.6754
G3 X23.3554 Y39.3227 I-0.5494 J-0.3532
G0 Z3.0
G0 X23.457 Y37.6532
G0 Z0.285
G1 F300.0 Z-0.125
G3 F500.0 X23.2288 Y37.5505 I0.0215 J-0.3525
G1 X22.9826 Y37.3044
G3 X22.5172 Y37.2318 I-0.1389 J-0.6382
G3 Y36.1005 I0.3266 J-0.5657
G3 X23.4969 Y36.6662 I0.3266 J0.5657
G3 X23.482 Y36.8048 I-0.6532 J0.0
G1 X23.6247 Y36.9475
G1 X29.4676
G1 X31.2063 Y35.2087
G1 Y32.5392
G1 X30.9596
G3 X30.8096 Y32.3892 I0.0 J-0.15
G1 Y29.3892
G3 X30.9596 Y29.2392 I0.15 J0.0
G1 X32.1594
G3 X32.3094 Y29.3892 I0.0 J0.15
G1 Y32.3892
G3 X32.1594 Y32.5392 I-0.15 J0.0
G1 X31.9127
G1 Y35.355
G3 X31.8093 Y35.6048 I-0.3532 J0.0
G1 X29.8636 Y37.5504
G3 X29.6139 Y37.6539 I-0.2498 J-0.2498
G1 X23.4785
G3 X23.457 Y37.6532 I0.0 J-0.3532
G0 Z3.0
G0 X23.8408 Y35.9491
G0 Z0.285
G1 F300.0 Z-0.125
G3 F500.0 X23.7058 Y35.8747 I0.0609 J-0.2702
G1 X22.7185 Y34.8874
G3 X22.6374 Y34.6916 I0.1959 J-0.1959
G1 Y22.2534
G1 X21.1991 Y20.8151
G3 X21.1179 Y20.6192 I0.1959 J-0.1959
G1 Y20.5036
G3 X20.4829 Y19.6347 I0.277 J-0.8689
G1 Y18.1107
G3 X22.3069 I0.912 J0.0
G1 Y19.6347
G3 X21.6719 Y20.5036 I-0.912 J0.0
G1 Y20.5045
G1 X23.1102 Y21.9428
G3 X23.1914 Y22.1386 I-0.1959 J0.1959
G1 Y34.5768
G1 X24.0164 Y35.4019
G1 X28.5118
G1 X29.4778 Y34.4356
G1 Y32.5392
G1 X28.9596
G3 X28.8096 Y32.3892 I0.0 J-0.15
G1 Y29.3892
G3 X28.9596 Y29.2392 I0.15 J0.0
G1 X30.1595
G3 X30.3095 Y29.3892 I0.0 J0.15
G1 Y32.3892
G3 X30.1595 Y32.5392 I-0.15 J0.0
G1 X30.0318
G1 Y34.5504
G3 X29.9507 Y34.7462 I-0.277 J0.0
G1 X28.8225 Y35.8747
G3 X28.6266 Y35.9559 I-0.1959 J-0.1958
G1 X23.9017
G3 X23.8408 Y35.9491 I0.0 J-0.277
G0 Z3.0
G0 X24.0917 Y35.2675
G0 Z0.285
G1 F300.0 Z-0.125
G3 F500.0 X23.9273 Y35.1623 I0.1571 J-0.4268
G1 X23.431 Y34.6659
G3 X23.2978 Y34.3444 I0.3216 J-0.3216
G1 Y33.4569
G1 Y27.9738
G1 Y27.5447
G3 X23.2718 Y27.4277 I0.2511 J-0.117
G1 Y22.1386
G3 X23.2893 Y22.0419 I0.277 J0.0
G1 X23.2393 Y21.9213
G1 X23.0675 Y21.7495
G1 X22.9118 Y21.5938
G1 X22.2156 Y20.8976
G3 Y20.2544 I0.3216 J-0.3216
G1 X22.2583 Y20.2117
G1 X22.3286 Y20.0421
G3 X23.057 Y19.8817 I0.4202 J0.1741
G3 X23.0229 Y19.6347 I0.8779 J-0.247
G1 Y18.1107
G3 X23.0569 Y17.864 I0.912 J0.0
G3 X22.3286 Y17.7036 I-0.3082 J-0.3345
G1 X22.256 Y17.5284
G3 X22.4328 Y16.8191 I0.351 J-0.2892
G1 X22.5934 Y16.7526
G3 X22.7675 Y16.7179 I0.1742 J0.4201
G1 X23.0053
G3 X23.3021 Y16.8281 I0.0 J0.4548
G3 X23.4342 Y16.4805 I0.454 J-0.0262
G1 X23.5833 Y16.3312
G3 X23.5834 I0.1062 J0.106
G1 X23.6544 Y16.2602
G3 X23.6546 Y16.26 I0.1061 J0.1061
G1 X23.725 Y16.1898
G1 X23.7308 Y16.1839
G1 X23.7462 Y16.1469
G3 X23.795 Y16.0584 I0.4202 J0.1741
G1 X23.8406 Y15.9484
G1 Y15.8565
G3 X23.8753 Y15.6822 I0.4548 J0.0
G1 X23.9112 Y15.5957
G1 Y15.1801
G1 Y15.1411
G1 X23.8753 Y15.0546
G3 X23.8406 Y14.8803 I0.4201 J-0.1743
G1 Y14.859
G1 X23.795 Y14.749
G3 X23.746 Y14.6602 I0.3713 J-0.2626
G1 X23.7242 Y14.6074
G3 X23.6757 Y14.5192 I0.3717 J-0.262
G1 X23.6607 Y14.4829
G1 X23.6546 Y14.4768
G3 X23.6451 Y14.4671 I0.321 J-0.3222
G1 X23.5923 Y14.4143
G3 X23.4938 Y13.9182 I0.3216 J-0.3216
G1 X23.535 Y13.8192
G3 X23.6334 Y13.672 I0.42 J0.1745
G1 X23.6451 Y13.6604
G3 X23.6546 Y13.6506 I0.3305 J0.3124
G1 X23.6607 Y13.6445
G1 X23.6757 Y13.6083
G3 X23.7242 Y13.52 I0.4203 J0.1738
G1 X23.746 Y13.4673
G3 X23.8447 Y13.3195 I0.4203 J0.1738
G1 X23.8659 Y13.2983
G3 X23.8661 Y13.2981 I0.1061 J0.1061
G1 X23.8723 Y13.292
G1 X23.8873 Y13.2557
G3 X23.9359 Y13.1673 I0.4203 J0.1738
G1 X23.9582 Y13.1137
G3 X24.0566 Y12.9667 I0.42 J0.1745
G1 X24.077 Y12.9462
G1 X24.0834 Y12.9398
G1 X24.0987 Y12.9028
G3 X24.1476 Y12.8143 I0.4202 J0.1741
G1 X24.1931 Y12.7043
G1 Y12.4612
G1 X24.1541 Y12.3669
G1 X24.0821 Y12.2949
G1 X23.9878 Y12.2559
G1 X22.6164
G1 X22.5222 Y12.2949
G1 X22.5155 Y12.3016
G1 X22.5154 Y12.3017
G1 X22.3739 Y12.4431
G3 X21.5569 Y12.3959 I-0.397 J-0.2219
G1 X21.545 Y12.3672
G1 X21.4727 Y12.2948
G1 X21.3787 Y12.2559
G1 X20.0071
G1 X19.8795 Y12.3087
G3 X19.5318 Y12.3088 I-0.174 J-0.4202
G1 X19.4039 Y12.2559
G1 X15.9874
G1 X15.9656 Y12.2649
G3 X15.6169 Y12.2648 I-0.1741 J-0.4201
G1 X15.5956 Y12.2559
G1 X14.0127
G1 X13.9185 Y12.2949
G1 X13.7823 Y12.431
G1 X13.7759 Y12.4375
G1 X13.7604 Y12.4747
G3 X13.6619 Y12.6221 I-0.4201 J-0.1742
G1 X13.6584 Y12.6256
G3 X12.9165 Y12.4779 I-0.3216 J-0.3216
G1 X12.8706 Y12.367
G1 X12.7985 Y12.2949
G1 X12.7043 Y12.2559
G1 X11.3321
G3 X11.0128 I-0.1597 J-0.4258
G1 X9.6403
G1 X9.5461 Y12.2949
G1 X9.474 Y12.367
G1 X9.4589 Y12.4036
G3 X9.4101 Y12.4922 I-0.4203 J-0.1738
G1 X9.3611 Y12.6102
G3 X8.9411 Y12.8906 I-0.4201 J-0.1744
G1 X8.6784
G3 X8.2582 Y12.6097 I0.0 J-0.4548
G1 X8.2094 Y12.4919
G3 X8.1608 Y12.4036 I0.3717 J-0.2621
G1 X8.1457 Y12.367
G1 X8.0736 Y12.2949
G1 X7.9794 Y12.2559
G1 X6.6078
G1 X6.5139 Y12.2948
G1 X6.4665 Y12.3423
G3 X5.9703 Y12.4412 I-0.322 J-0.3212
G1 X5.8543 Y12.3931
G3 X5.7386 Y12.3621 I0.0585 J-0.451
G1 X5.6521 Y12.3263
G1 X5.4191
G3 X5.2453 Y12.2917 I0.0 J-0.4548
G1 X5.1586 Y12.2559
G1 X2.7292
G1 X2.635 Y12.2949
G1 X2.5628 Y12.3671
G1 X2.503 Y12.5116
G3 X1.628 Y12.3375 I-0.4202 J-0.1741
G1 Y11.5247
G1 Y10.3063
G1 Y9.6972
G1 Y9.0879
G1 Y7.619
G3 X2.0828 Y7.1642 I0.4548 J0.0
G1 X4.1618
G1 X4.2558 Y7.1252
G1 X4.328 Y7.053
G1 X4.3671 Y6.9586
G1 Y5.4326
G1 Y4.8235
G1 Y4.2141
G1 Y3.605
G1 Y3.257
G1 X4.3331 Y3.1751
G3 X4.3289 Y3.1649 I0.4179 J-0.1794
G1 X4.328 Y3.1626
G1 X4.2558 Y3.0904
G1 X4.1618 Y3.0514
G1 X2.0828
G3 X1.628 Y2.5966 I0.0 J-0.4548
G1 Y2.3866
G1 Y2.0828
G3 X2.0828 Y1.628 I0.4548 J0.0
G1 X7.38
G3 X7.8348 Y2.0828 I0.0 J0.4548
G1 Y2.3866
G1 Y2.9957
G1 Y3.4575
G1 X7.8737 Y3.5515
G1 X7.9527 Y3.6304
G3 X7.953 Y4.2738 I-0.3213 J0.3219
G1 X7.8738 Y4.3531
G1 X7.8625 Y4.3802
G3 X7.8561 Y4.3959 I-0.4234 J-0.1661
G1 X7.8348 Y4.4473
G1 Y4.8235
G1 Y5.4326
G1 Y5.7683
G1 X7.8738 Y5.8625
G1 X7.9463 Y5.9351
G3 X8.1008 Y6.6594 I-0.181 J0.4172
G1 X10.3165
G3 X10.471 Y5.9351 I0.3355 J-0.3071
G1 X10.5437 Y5.8623
G1 X10.5498 Y5.8478
G3 X10.9698 Y5.5675 I0.42 J0.1745
G1 X11.7932
G3 X12.1148 Y5.7007 I0.0 J0.4548
G1 X12.1344 Y5.7203
G1 X12.7346 Y6.3205
G3 X12.7526 Y6.3386 I-0.3124 J0.3305
G1 X12.8823 Y6.4683
G1 X12.9571 Y6.4992
G3 X13.2034 Y6.7451 I-0.1738 J0.4203
G1 X13.2345 Y6.8202
G1 X14.2261 Y7.8117
G1 X14.3203 Y7.8507
G1 X14.4224
G1 X14.5342 Y7.8044
G3 X15.1148 Y7.8567 I0.259 J0.3738
G1 X16.0155 Y8.7574
G3 X16.0335 Y8.7754 I-0.3124 J0.3305
G1 X16.6337 Y9.3756
G1 X17.2339 Y9.9758
G3 X17.252 Y9.9939 I-0.3124 J0.3305
G1 X17.4632 Y10.2051
G1 X17.6566 Y10.3983
G1 X17.8257 Y10.4685
G1 X34.3597
G1 X34.5286 Y10.3984
G1 X34.9377 Y9.9894
G3 X34.9469 Y9.9801 I0.3262 J0.3169
G1 X35.5516 Y9.3755
G1 X36.1521 Y8.7751
G3 X36.1696 Y8.7576 I0.3302 J0.3127
G1 X36.2734 Y8.6538
G1 X36.7699 Y8.1572
G1 X37.3311 Y7.5959
G1 Y7.5958
G1 X37.3791 Y7.5478
G1 X38.5976 Y6.3294
G1 X38.6316 Y6.2954
G3 X38.9532 Y6.1622 I0.3216 J0.3216
G1 X40.5575
G3 X40.879 Y6.2954 I0.0 J0.4548
G1 X40.9131 Y6.3294
G1 X41.8126 Y7.229
G1 X43.0772
G1 X43.9713 Y6.3348
G1 Y6.0419
G1 Y5.4326
G1 Y5.0703
G1 X43.4368 Y4.5357
G1 X43.0772 Y4.1762
G1 X41.8126
G1 X41.4622 Y4.5265
G3 X41.4442 Y4.5446 I-0.3305 J-0.3124
G1 X40.879 Y5.1097
G3 X40.5575 Y5.243 I-0.3216 J-0.3216
G1 X38.4835
G3 X38.4708 Y5.248 I-0.1757 J-0.4195
G1 X38.3142 Y5.3129
G1 X36.6812 Y6.9459
G1 X35.6235 Y8.0036
G1 X34.8267 Y8.8004
G1 X34.211 Y9.4161
G3 X33.8894 Y9.5493 I-0.3216 J-0.3216
G1 X18.2956
G3 X17.974 Y9.4161 I0.0 J-0.4548
G1 X17.3583 Y8.8004
G1 X15.7647 Y7.2068
G3 X15.7129 Y6.6256 I0.3216 J-0.3216
G1 X15.759 Y6.5141
G1 Y6.412
G1 X15.72 Y6.3178
G1 X14.7287 Y5.3265
G1 X14.654 Y5.2956
G3 X14.4077 Y5.0496 I0.1738 J-0.4203
G1 X14.3894 Y5.0055
G3 X14.383 Y4.9901 I0.4168 J-0.182
G1 X14.3765 Y4.9745
G1 X13.3852 Y3.983
G1 X13.2911 Y3.944
G1 X13.1889
G1 X13.0945 Y3.983
G1 X12.5627 Y4.5151
G3 X12.241 Y4.6483 I-0.3217 J-0.3215
G1 X10.9698
G3 X10.5496 Y4.3677 I0.0 J-0.4548
G1 X10.5436 Y4.3532
G1 X10.4643 Y4.2738
G3 X10.4645 Y3.6304 I0.3216 J-0.3216
G1 X10.5436 Y3.5515
G1 X10.5825 Y3.4575
G1 Y2.3866
G1 Y2.0828
G3 X11.0373 Y1.628 I0.4548 J0.0
G1 X49.0347
G3 X49.4895 Y2.0828 I0.0 J0.4548
G1 Y2.3866
G1 Y4.2141
G1 Y4.4905
G3 X48.7131 Y4.8121 I-0.4548 J0.0
G1 X48.4368 Y4.5357
G1 X48.0772 Y4.1762
G1 X46.8126
G1 X46.4622 Y4.5265
G3 X46.4442 Y4.5446 I-0.3305 J-0.3124
G1 X45.9185 Y5.0703
G1 Y5.4326
G1 Y6.0419
G1 Y6.3348
G1 X46.8126 Y7.229
G1 X48.133
G3 X48.4546 Y7.3622 I0.0 J0.4548
G1 X48.6403 Y7.5478
G1 X48.6967 Y7.6042
G3 X48.8299 Y7.9258 I-0.3216 J0.3216
G1 Y8.4788
G1 Y9.0879
G1 Y9.6972
G1 Y10.3063
G1 Y11.5247
G1 Y11.8011
G3 X48.3751 Y12.2559 I-0.4548 J0.0
G1 X47.1579
G1 X47.0638 Y12.2948
G1 X46.9275 Y12.4314
G3 X46.9272 Y12.4316 I-0.1061 J-0.106
G1 X46.9152 Y12.4436
G3 X46.0979 Y12.395 I-0.3968 J-0.2222
G1 X46.0863 Y12.3669
G1 X46.0143 Y12.2949
G1 X45.9202 Y12.2559
G1 X44.5487
G1 X44.4208 Y12.3088
G3 X44.0731 Y12.3087 I-0.1738 J-0.4203
G1 X43.9456 Y12.2559
G1 X40.5291
G1 X40.5073 Y12.2649
G3 X40.159 I-0.1741 J-0.4201
G1 X40.1372 Y12.2559
G1 X38.5543
G1 X38.46 Y12.2949
G1 X38.3237 Y12.4314
G3 X38.3235 Y12.4316 I-0.1061 J-0.106
G1 X38.3175 Y12.4376
G1 X38.3025 Y12.4739
G3 X38.2037 Y12.6221 I-0.4204 J-0.1735
G1 X38.2001 Y12.6256
G3 X37.4585 Y12.4784 I-0.3216 J-0.3216
G1 X37.4123 Y12.3671
G1 X37.3401 Y12.2948
G1 X37.2461 Y12.2559
G1 X35.8736
G3 X35.5542 I-0.1597 J-0.4258
G1 X34.182
G1 X34.0879 Y12.2949
G1 X34.0156 Y12.3671
G1 X34.0005 Y12.4037
G3 X33.9517 Y12.4922 I-0.4202 J-0.1741
G1 X33.903 Y12.6097
G3 X33.4828 Y12.8906 I-0.4203 J-0.1739
G1 X33.2202
G3 X32.7999 Y12.6097 I0.0 J-0.4548
G1 X32.7515 Y12.4928
G3 X32.7023 Y12.4036 I0.3711 J-0.2629
G1 X32.6872 Y12.367
G1 X32.6151 Y12.2949
G1 X32.5209 Y12.2559
G1 X31.1382
G3 X30.9105 I-0.1138 J-0.4403
G1 X29.8096
G1 X29.6995 Y12.3014
G3 X29.176 Y12.3016 I-0.2619 J-0.3718
G1 X29.0655 Y12.2559
G1 X28.117
G1 X28.0066 Y12.3016
G3 X27.4833 I-0.2616 J-0.372
G1 X27.3728 Y12.2559
G1 X26.2834
G1 X26.1894 Y12.2948
G1 X26.1172 Y12.367
G1 X26.0781 Y12.4614
G1 Y13.3525
G1 Y13.9616
G1 Y14.571
G1 Y15.1801
G1 Y16.583
G1 X26.1125 Y16.666
G3 X25.9014 Y17.2441 I-0.4201 J0.1742
G1 X25.8161 Y17.3294
G1 X25.6116 Y17.5339
G1 X25.5413 Y17.7036
G3 X24.8129 Y17.864 I-0.4202 J-0.1741
G3 X24.8469 Y18.1107 I-0.878 J0.2467
G1 Y19.6347
G3 X24.8128 Y19.8817 I-0.912 J0.0
G3 X25.5413 Y20.0421 I0.3083 J0.3344
G1 X25.6115 Y20.2117
G1 X25.7349 Y20.3349
G3 X25.7481 Y20.3481 I-0.3148 J0.3282
G1 X25.8981 Y20.498
G1 X26.2725 Y20.6531
G1 X26.6776
G1 X27.052 Y20.4981
G1 X27.2085 Y20.3416
G1 X27.3383 Y20.2117
G1 X27.4758 Y19.8797
G1 X27.4933 Y19.8374
G1 Y19.4447
G1 Y18.8354
G1 Y18.2263
G1 Y17.9081
G1 X27.4448 Y17.7911
G1 X27.3355 Y17.5272
G3 X27.6908 Y16.7885 I0.3553 J-0.2839
G1 X28.0074
G1 X28.1018 Y16.7493
G1 X28.1652 Y16.686
G1 X28.1741 Y16.6771
G3 X29.0084 I0.4172 J0.1811
G1 X29.0173 Y16.686
G1 X29.0808 Y16.7493
G1 X29.1751 Y16.7885
G1 X30.8989
G1 X30.9932 Y16.7494
G1 X31.0563 Y16.6862
G1 X31.0653 Y16.6772
G1 X31.1044 Y16.583
G1 Y15.7894
G1 Y15.7856
G3 X31.9796 Y15.612 I0.4548 J0.0
G1 X31.9812 Y15.6158
G1 X32.038 Y15.7535
G3 X32.0687 Y15.8685 I-0.4204 J0.1736
G1 X32.1084 Y15.9641
G3 X32.1394 Y16.0806 I-0.4201 J0.1743
G1 X32.1789 Y16.1762
G3 X32.2097 Y16.2918 I-0.4203 J0.1738
G1 X32.2493 Y16.3873
G3 X32.2803 Y16.5036 I-0.4201 J0.1743
G1 X32.323 Y16.6067
G1 X32.4026 Y16.6862
G1 X32.4591 Y16.7428
G1 X32.4656 Y16.7492
G1 X32.5602 Y16.7885
G1 X34.1427
G1 X34.2371 Y16.7493
G1 X34.3005 Y16.686
G1 X34.3646 Y16.6221
G3 X34.3733 Y16.6131 I0.3303 J0.3126
G1 X34.3798 Y16.6066
G1 X34.4227 Y16.5032
G3 X34.4535 Y16.3877 I0.451 J0.0586
G1 X34.4932 Y16.2919
G3 X34.524 Y16.1762 I0.4511 J0.0581
G1 X34.5636 Y16.0806
G3 X34.5946 Y15.9641 I0.4511 J0.0578
G1 X34.6342 Y15.8686
G3 X34.665 Y15.7531 I0.4511 J0.0582
G1 X34.7045 Y15.6574
G3 X34.7355 Y15.541 I0.4511 J0.0578
G1 X34.7942 Y15.3995
G3 X35.6691 Y15.5738 I0.4201 J0.1742
G1 Y16.5832
G1 X35.708 Y16.6772
G1 X35.7098 Y16.6789
G3 X35.7242 Y16.6933 I-0.3141 J0.3289
G1 X35.7803 Y16.7493
G1 X35.8746 Y16.7885
G1 X37.2459
G1 X37.3401 Y16.7494
G1 X37.4032 Y16.6862
G1 X37.4172 Y16.6723
G3 X38.1384 Y16.5686 I0.3993 J0.2177
G1 X38.2487 Y16.6791
G3 X38.2636 Y16.694 I-0.3143 J0.3287
G1 X38.3037 Y16.7342
G3 X38.3126 Y16.7429 I-0.3127 J0.3303
G1 X38.3191 Y16.7494
G1 X38.4134 Y16.7885
G1 X40.0665
G1 X40.1235 Y16.7648
G3 X40.4722 I0.1744 J0.42
G1 X40.5292 Y16.7885
G1 X43.8749
G1 X44.0376 Y16.721
G3 X44.3857 I0.1741 J0.4201
G1 X44.5488 Y16.7885
G1 X47.0484
G1 X47.1352 Y16.7525
G3 X47.3093 Y16.7179 I0.1741 J0.4202
G1 X47.5422
G1 X47.6516 Y16.6726
G3 X47.7408 Y16.6234 I0.263 J0.371
G1 X47.7935 Y16.6016
G3 X47.8813 Y16.5532 I0.262 J0.3717
G1 X47.9185 Y16.5378
G1 X48.0535 Y16.4028
G3 X48.8299 Y16.7244 I0.3216 J0.3216
G1 Y17.6169
G1 Y18.2263
G1 Y18.8354
G1 Y19.4325
G3 X48.6967 Y19.7541 I-0.4548 J0.0
G1 X48.6845 Y19.7663
G1 X47.466 Y20.9847
G1 X46.8569 Y21.5938
G1 X46.2476 Y22.2032
G1 X45.6385 Y22.8123
G1 X45.0291 Y23.4216
G1 X44.4201 Y24.0307
G1 X44.2959 Y24.1549
G3 X43.9743 Y24.2881 I-0.3216 J-0.3216
G1 X43.6347
G3 X43.3131 Y24.1549 I0.0 J-0.4548
G1 X43.1889 Y24.0307
G1 X43.1175 Y23.9593
G3 X43.0191 Y23.4632 I0.3216 J-0.3216
G1 X43.0249 Y23.4492
G1 Y23.3474
G3 X43.4281 Y22.7254 I0.4228 J-0.1676
G1 X41.861 Y21.1582
G3 X41.239 Y21.5617 I-0.4544 J-0.0193
G1 X41.1371
G1 X41.0429 Y21.6007
G1 X40.4404 Y22.2032
G1 X40.1088 Y22.5348
G1 X40.0697 Y22.6291
G1 Y22.7409
G3 X39.6149 Y23.1957 I-0.4548 J0.0
G1 X39.503
G1 X39.4088 Y23.2348
G1 X39.2219 Y23.4216
G1 X38.4747 Y24.1689
G1 X38.4357 Y24.2631
G1 Y24.3652
G1 X38.4747 Y24.4594
G1 X39.2306 Y25.2153
G1 X40.1272 Y26.1119
G1 X40.2214 Y26.1509
G1 X40.3235
G1 X40.4177 Y26.112
G1 X40.6977 Y25.8319
G3 X40.7124 Y25.8171 I0.3289 J0.3141
G1 X41.3517 Y25.1777
G1 X41.3907 Y25.0835
G1 Y24.9715
G3 X41.8455 Y24.5167 I0.4548 J0.0
G1 X41.9579
G1 X41.9727 Y24.5106
G3 X42.4676 Y24.6095 I0.1732 J0.4205
G1 X42.8023 Y24.9442
G1 X42.9956 Y25.1373
G1 X43.1645 Y25.2073
G1 X44.4444
G1 X44.6133 Y25.1374
G1 X46.3631 Y23.3875
G1 X47.5815 Y22.1691
G1 X48.7131 Y21.0375
G3 X49.4895 Y21.3591 I0.3216 J0.3216
G1 Y22.4907
G1 Y23.7091
G1 Y30.4107
G1 Y31.02
G1 Y31.6291
G1 Y32.2384
G1 Y32.8475
G1 Y33.4569
G1 Y34.066
G1 Y34.6753
G1 Y35.2844
G1 Y35.8938
G1 Y36.5028
G1 Y37.7213
G1 Y38.9397
G1 Y39.5491
G1 Y40.1582
G1 Y40.7675
G1 Y41.3766
G1 Y41.9859
G1 Y42.595
G1 Y43.2044
G1 Y43.8135
G1 Y44.4228
G1 Y45.0319
G1 Y46.2504
G1 Y46.8597
G1 Y47.4688
G1 Y48.0781
G1 Y48.6872
G1 Y49.0347
G3 X49.0347 Y49.4895 I-0.4548 J0.0
G1 X40.8277
G3 X40.4076 Y48.8605 I0.0 J-0.4548
G1 X40.4161 Y48.84
G1 Y48.6872
G1 Y48.0781
G1 Y47.4688
G1 Y46.8597
G1 Y46.2504
G1 Y45.7382
G1 X40.377 Y45.644
G1 X40.3048 Y45.5718
G1 X40.2105 Y45.5327
G1 X38.9086
G1 X38.7336 Y45.6052
G3 X38.3852 Y45.6051 I-0.1742 J-0.4201
G1 X38.2106 Y45.5327
G1 X36.9086
G1 X36.7337 Y45.6052
G3 X36.3852 Y45.6051 I-0.1742 J-0.4201
G1 X36.2106 Y45.5327
G1 X34.9086
G1 X34.7337 Y45.6052
G3 X34.3852 Y45.6051 I-0.1742 J-0.4201
G1 X34.2106 Y45.5327
G1 X32.9088
G1 X32.7479 Y45.5995
G3 X32.1187 Y45.1795 I-0.1745 J-0.42
G1 Y45.0319
G1 Y44.4228
G1 Y43.8135
G1 Y43.2044
G1 Y42.595
G1 Y42.4986
G1 X32.0487 Y42.3297
G1 X32.0266 Y42.3075
G1 X31.8554 Y42.1363
G1 X31.5178 Y41.7988
G3 X31.8394 Y41.0224 I0.3216 J-0.3216
G1 X32.1627
G1 X32.31 Y40.9613
G3 X32.3329 Y40.9519 I0.1855 J0.4153
G1 X32.4418 Y40.9067
G1 X32.6555 Y40.693
G1 X32.6968 Y40.5934
G1 X32.7712 Y40.4139
G1 Y40.3415
G3 X32.9044 Y40.02 I0.4548 J0.0
G1 X33.0789 Y39.8455
G3 X33.0964 Y39.8279 I0.3303 J0.3127
G1 X33.6968 Y39.2275
G1 X34.2993 Y38.6249
G3 X34.3127 Y38.6115 I0.3282 J0.3148
G1 X35.5208 Y37.4033
G3 X35.528 Y37.3961 I0.3252 J0.318
G1 X35.9491 Y36.975
G1 X36.0191 Y36.8061
G1 Y36.5028
G1 Y35.8938
G1 Y35.2844
G1 Y34.6753
G1 Y34.066
G1 Y33.4569
G1 Y33.0286
G3 X36.3005 Y32.6082 I0.4548 J0.0
G1 X36.3861 Y32.5729
G3 X36.7333 Y32.5731 I0.1734 J0.4204
G1 X36.9084 Y32.6455
G1 X38.2108
G1 X38.3855 Y32.5731
G3 X38.7333 I0.174 J0.4202
G1 X38.9084 Y32.6455
G1 X40.2107
G1 X40.3049 Y32.6065
G1 X40.3769 Y32.5345
G1 X40.4161 Y32.44
G1 Y32.2384
G1 Y31.6291
G1 Y31.02
G1 Y30.4107
G1 Y29.3384
G1 X40.3769 Y29.2439
G1 X40.3047 Y29.1717
G1 X40.2994 Y29.1695
G3 X40.0191 Y28.7495 I0.1745 J-0.42
G1 Y27.9026
G1 X39.9491 Y27.7335
G1 X38.0741 Y25.8585
G1 X37.4723 Y25.2568
G1 X37.279 Y25.0634
G1 X37.1101 Y24.9935
G1 X36.7055
G3 X36.2507 Y24.5387 I0.0 J-0.4548
G1 Y24.4348
G1 X36.0957 Y24.0604
G1 X35.8093 Y23.7739
G1 X35.435 Y23.6188
G1 X35.0299
G1 X34.6556 Y23.7739
G1 X34.3657 Y24.0638
G3 X33.5589 Y24.0637 I-0.4034 J-0.2101
G1 X33.2693 Y23.7739
G1 X32.895 Y23.6188
G1 X32.4899
G1 X32.1156 Y23.7739
G1 X31.8587 Y24.0307
G1 X31.8291 Y24.0603
G1 X31.7591 Y24.2298
G3 X31.0303 Y24.3902 I-0.4203 J-0.1737
G3 X31.0643 Y24.6372 I-0.8779 J0.247
G1 Y26.1612
G3 X31.0302 Y26.4086 I-0.912 J0.0
G3 X31.7591 Y26.5689 I0.3086 J0.3341
G1 X31.8291 Y26.7383
G1 X32.1155 Y27.0246
G1 X32.4899 Y27.1796
G1 X32.8295
G3 X33.1511 Y27.3129 I0.0 J0.4548
G1 X33.4903 Y27.6522
G1 X33.9557 Y28.1177
G1 X34.1944 Y28.3561
G3 X33.8729 Y29.1327 I-0.3214 J0.3218
G1 X32.9086
G1 X32.7337 Y29.2052
G3 X32.3852 Y29.2051 I-0.1742 J-0.4201
G1 X32.2106 Y29.1327
G1 X30.9086
G1 X30.7337 Y29.2052
G3 X30.3852 Y29.2051 I-0.1742 J-0.4201
G1 X30.2106 Y29.1327
G1 X28.9086
G1 X28.7337 Y29.2052
G3 X28.3852 Y29.2051 I-0.1742 J-0.4201
G1 X28.2106 Y29.1327
G1 X26.9087
G1 X26.8142 Y29.1719
G1 X26.7593 Y29.2266
G3 X26.3005 Y29.3382 I-0.3212 J-0.3219
G3 X26.3095 Y29.3892 I-0.1411 J0.051
G1 Y32.3892
G3 X26.3005 Y32.4402 I-0.15 J0.0
G3 X26.7593 Y32.5518 I0.1376 J0.4335
G1 X26.814 Y32.6063
G1 X26.819 Y32.6084
G3 X27.0999 Y33.0286 I-0.1739 J0.4202
G1 Y33.4569
G1 Y33.6454
G1 X27.1697 Y33.8141
G3 X27.3029 Y34.1356 I-0.3217 J0.3215
G1 Y34.2079
G1 X27.4186 Y34.4873
G1 X27.4507 Y34.5195
G3 X27.1287 Y35.2955 I-0.322 J0.3212
G1 X24.2489
G3 X24.0917 Y35.2675 I0.0 J-0.4548
G0 Z3.0
G0 X23.4209 Y17.3574
G0 Z0.285
G1 F300.0 Z-0.125
G2 F500.0 X23.4593 Y17.1465 I-0.4156 J-0.1847
G2 X23.4801 Y17.1633 I0.2968 J-0.3446
G1 Y17.3202
G2 X23.4209 Y17.3574 I0.4548 J0.7905
G0 Z3.0
G0 X23.0194 Y16.5942
G0 Z0.285
G1 F300.0 Z-0.125
G3 F500.0 X22.9495 Y16.6115 I-0.0698 J-0.1327
G1 X22.5832
G3 X22.4559 Y16.6821 I-0.1273 J-0.0794
G1 X20.0581
G3 X19.9081 Y16.5321 I0.0 J-0.15
G1 Y16.4615
G3 X19.9083 Y16.4553 I0.15 J0.0
G1 Y16.3996
G3 X19.908 Y16.3909 I0.1497 J-0.0087
G1 Y16.3203
G3 X19.9081 Y16.3141 I0.15 J0.0
G1 Y16.2499
G1 Y16.1793
G3 X19.9083 Y16.1731 I0.15 J0.0
G1 Y16.1177
G3 X19.908 Y16.1089 I0.1497 J-0.0087
G1 Y16.0383
G3 X19.9081 Y16.0322 I0.15 J0.0
G1 Y15.9677
G1 Y15.8974
G1 Y15.8267
G1 Y15.7561
G1 Y15.6858
G1 Y15.6152
G1 Y15.5445
G1 Y15.4742
G1 Y15.4036
G1 Y15.333
G1 Y15.2626
G1 Y15.192
G1 Y15.1216
G1 Y15.051
G1 Y14.9804
G1 Y14.9101
G1 Y14.8394
G1 Y14.7753
G3 X19.908 Y14.7691 I0.1499 J-0.0062
G1 Y14.6985
G1 Y14.6279
G3 X19.9083 Y14.6191 I0.15 J0.0
G1 Y14.5637
G3 X19.9081 Y14.5575 I0.1499 J-0.0062
G1 Y14.4869
G1 Y14.4224
G3 X19.908 Y14.4163 I0.1499 J-0.0062
G1 Y14.3457
G3 X19.9083 Y14.3369 I0.15 J0.0
G1 Y14.2815
G3 X19.9081 Y14.2753 I0.1499 J-0.0062
G1 Y14.2047
G1 Y14.1341
G1 Y14.0637
G1 Y13.9931
G1 Y13.9228
G1 Y13.8521
G1 Y13.7815
G1 Y13.7112
G1 Y13.6406
G1 Y13.57
G1 Y13.4996
G1 Y13.429
G1 Y13.3584
G1 Y13.288
G1 Y13.2174
G1 Y13.1468
G1 Y13.0764
G1 Y13.0058
G1 Y12.9355
G1 Y12.8648
G1 Y12.7942
G1 Y12.7239
G1 Y12.6533
G1 Y12.5827
G1 Y12.5123
G3 X20.0581 Y12.3623 I0.15 J0.0
G1 X21.3276
G3 X21.4776 Y12.5123 I0.0 J0.15
G1 Y12.5829
G1 Y12.6533
G1 Y12.7239
G1 Y12.7945
G1 Y12.8648
G1 Y12.9355
G1 Y13.0061
G1 Y13.0764
G1 Y13.147
G1 Y13.2174
G1 Y13.288
G1 Y13.3586
G1 Y13.429
G1 Y13.4996
G1 Y13.5702
G1 Y13.6406
G1 Y13.7112
G1 Y13.7818
G1 Y13.8521
G1 Y13.9137
G1 X21.5528
G3 X21.6155 Y13.8577 I0.1273 J0.0794
G3 X21.6859 Y13.7874 I0.1352 J0.065
G3 X21.7561 Y13.7171 I0.1353 J0.0647
G3 X21.8122 Y13.6542 I0.1354 J0.0645
G1 Y13.6406
G3 X21.8828 Y13.5133 I0.15 J0.0
G1 Y13.4996
G3 X21.9678 Y13.3644 I0.15 J0.0
G3 X22.0238 Y13.3017 I0.1354 J0.0646
G1 Y13.288
G3 X22.0943 Y13.1608 I0.15 J0.0
G1 Y13.1468
G3 X22.1796 Y13.0115 I0.15 J0.0
G3 X22.2354 Y12.9492 I0.1352 J0.065
G1 Y12.9355
G3 X22.3058 Y12.8083 I0.15 J0.0
G1 Y12.7942
G3 X22.3912 Y12.6588 I0.15 J0.0
G3 X22.4469 Y12.5967 I0.1352 J0.065
G1 Y12.5827
G3 X22.5323 Y12.4473 I0.15 J0.0
G3 X22.6675 Y12.3623 I0.1352 J0.065
G1 X23.937
G3 X24.087 Y12.5123 I0.0 J0.15
G1 Y12.5829
G1 Y12.6533
G3 X24.0162 Y12.7806 I-0.15 J0.0
G1 Y12.7945
G3 X23.9308 Y12.9299 I-0.15 J0.0
G3 X23.8753 Y12.992 I-0.1352 J-0.065
G1 Y13.0061
G3 X23.8046 Y13.1333 I-0.15 J0.0
G1 Y13.147
G3 X23.7197 Y13.2822 I-0.15 J0.0
G3 X23.6637 Y13.3447 I-0.1353 J-0.0648
G1 Y13.3586
G3 X23.5931 Y13.4859 I-0.15 J0.0
G1 Y13.4996
G3 X23.5081 Y13.6348 I-0.15 J0.0
G3 X23.4521 Y13.6975 I-0.1354 J-0.0646
G1 Y13.7112
G3 X23.3668 Y13.8465 I-0.15 J0.0
G3 X23.3111 Y13.9089 I-0.1353 J-0.0647
G1 Y13.9228
G3 X23.2258 Y14.0581 I-0.15 J0.0
G3 X23.1551 Y14.1288 I-0.1353 J-0.0647
G3 X23.0912 Y14.1957 I-0.1352 J-0.065
G3 X23.2178 Y14.2663 I-0.0007 J0.15
G1 X23.2316
G3 X23.3669 Y14.3516 I0.0 J0.15
G3 X23.4374 Y14.4219 I-0.0647 J0.1353
G3 X23.5081 Y14.4927 I-0.0647 J0.1353
G3 X23.5931 Y14.6279 I-0.065 J0.1352
G1 Y14.6416
G3 X23.6635 Y14.7688 I-0.0795 J0.1272
G1 Y14.7828
G3 X23.7342 Y14.9101 I-0.0794 J0.1273
G1 Y14.9807
G1 Y15.0449
G3 X23.7343 Y15.051 I-0.1499 J0.0062
G1 Y15.0648
G3 X23.8048 Y15.192 I-0.0795 J0.1272
G1 Y15.2626
G1 Y15.3332
G1 Y15.4036
G1 Y15.4742
G1 Y15.5448
G3 X23.7342 Y15.6721 I-0.15 J0.0
G1 Y15.6858
G1 Y15.7564
G1 Y15.8267
G1 Y15.8974
G3 X23.6635 Y16.0246 I-0.15 J0.0
G1 Y16.0383
G3 X23.5784 Y16.1736 I-0.15 J0.0
G3 X23.5081 Y16.2441 I-0.1354 J-0.0646
G3 X23.4374 Y16.3149 I-0.1354 J-0.0646
G3 X23.3669 Y16.3852 I-0.1352 J-0.065
G3 X23.2316 Y16.4705 I-0.1353 J-0.0647
G1 X23.2176
G3 X23.0905 Y16.5409 I-0.1271 J-0.0796
G1 X23.0768
G3 X23.0194 Y16.5942 I-0.1273 J-0.0794
G0 Z3.0
G0 X20.6224 Y17.142
G0 Z0.285
G1 F300.0 Z-0.125
G3 F500.0 X20.5318 Y17.5304 I-0.4434 J0.1013
G3 X19.7181 I-0.4069 J-0.2032
G3 X20.0708 Y16.7885 I0.3528 J-0.2871
G1 X20.179
G3 X20.6224 Y17.142 I0.0 J0.4548
G0 Z3.0
G0 X19.4189 Y16.5942
G0 Z0.285
G1 F300.0 Z-0.125
G3 F500.0 X19.2824 Y16.6821 I-0.1365 J-0.0621
G1 X16.0383
G3 X15.8883 Y16.5321 I0.0 J-0.15
G1 Y16.4615
G1 Y16.3909
G1 Y16.3203
G1 Y16.2499
G1 Y16.1793
G1 Y16.1089
G1 Y16.0383
G1 Y15.9677
G1 Y15.8974
G1 Y15.8267
G1 Y15.7561
G1 Y15.6858
G1 Y15.6152
G1 Y15.5445
G1 Y15.4742
G1 Y15.4036
G1 Y15.333
G1 Y15.2626
G1 Y15.192
G1 Y15.1278
G3 X15.8882 Y15.1216 I0.1499 J-0.0062
G1 Y15.051
G1 Y14.9804
G1 Y14.9101
G1 Y14.8394
G1 Y14.7688
G1 Y14.6985
G1 Y14.6279
G1 Y14.5572
G1 Y14.4869
G1 Y14.4163
G1 Y14.3457
G1 Y14.2753
G1 Y14.2047
G3 X15.8883 Y14.1985 I0.15 J0.0
G1 Y14.1341
G1 Y14.0637
G1 Y13.9931
G1 Y13.9228
G1 Y13.8521
G1 Y13.7815
G1 Y13.7112
G1 Y13.6406
G1 Y13.5699
G1 Y13.4996
G1 Y13.429
G3 X15.8884 Y13.4228 I0.15 J0.0
G1 Y13.3584
G1 Y13.288
G1 Y13.2174
G1 Y13.1468
G1 Y13.0764
G1 Y13.0058
G1 Y12.9355
G1 Y12.8648
G1 Y12.7942
G1 Y12.7239
G1 Y12.6533
G1 Y12.5827
G1 Y12.5123
G3 X16.0384 Y12.3623 I0.15 J0.0
G1 X19.3529
G3 X19.5029 Y12.5123 I0.0 J0.15
G1 Y12.5829
G1 Y12.6533
G1 Y12.7239
G1 Y12.7945
G1 Y12.8648
G1 Y12.9355
G1 Y13.0061
G1 Y13.0764
G1 Y13.147
G1 Y13.2174
G1 Y13.288
G1 Y13.3586
G1 Y13.429
G3 X19.3529 Y13.579 I-0.15 J0.0
G1 X17.4578
G1 Y13.6406
G1 Y13.7112
G1 Y13.7818
G1 Y13.8521
G1 Y13.9228
G1 Y13.9934
G1 Y14.0547
G1 X19.1413
G3 X19.2913 Y14.2047 I0.0 J0.15
G1 Y14.2753
G1 Y14.3459
G1 Y14.4163
G1 Y14.4869
G1 Y14.5575
G1 Y14.6279
G1 Y14.6985
G1 Y14.7691
G1 Y14.8394
G1 Y14.9101
G1 Y14.9807
G1 Y15.051
G1 Y15.1216
G3 X19.1413 Y15.2716 I-0.15 J0.0
G1 X17.4578
G1 Y15.3332
G1 Y15.4036
G1 Y15.4652
G1 X19.2824
G3 X19.4324 Y15.6152 I0.0 J0.15
G1 Y15.6858
G1 Y15.7564
G1 Y15.8267
G1 Y15.8974
G1 Y15.968
G1 Y16.0383
G1 Y16.1089
G1 Y16.1795
G1 Y16.2499
G1 Y16.3205
G1 Y16.3909
G1 Y16.4615
G1 Y16.5321
G3 X19.4189 Y16.5942 I-0.15 J0.0
G0 Z3.0
G0 X18.0663 Y17.0875
G0 Z0.285
G1 F300.0 Z-0.125
G3 F500.0 X17.9944 Y17.5272 I-0.4273 J0.1558
G1 X17.8896 Y17.78
G3 X17.8805 Y17.8019 I-0.4245 J-0.1631
G1 X17.8365 Y17.9081
G1 Y18.2263
G1 Y18.8354
G1 Y19.4447
G1 Y19.8374
G1 X17.8499 Y19.8696
G3 X17.8584 Y19.8901 I-0.4158 J0.1842
G1 X17.9916 Y20.2117
G1 X18.1149 Y20.3349
G3 X18.1281 Y20.3481 I-0.3148 J0.3282
G1 X18.2781 Y20.498
G1 X18.6525 Y20.6531
G1 X18.8981
G3 X19.2197 Y20.7863 I0.0 J0.4548
G1 X19.3818 Y20.9484
G1 X19.3863 Y20.9529
G1 X19.9932 Y21.56
G1 X20.5944 Y22.1612
G3 X20.6104 Y22.1772 I-0.3135 J0.3295
G1 X20.9815 Y22.5483
G3 X21.1147 Y22.8699 I-0.3216 J0.3216
G1 Y22.9326
G3 X20.3383 Y23.2542 I-0.4548 J0.0
G1 X20.0903 Y23.0063
G1 X19.5295 Y22.774
G1 X16.3822
G1 X16.0512 Y22.911
G1 X15.9193 Y22.9655
G3 X15.4239 Y22.8669 I-0.1739 J-0.4202
G1 X15.3693 Y22.8123
G1 X14.7602 Y22.2032
G1 X14.1508 Y21.5938
G1 X13.5417 Y20.9847
G1 X12.9324 Y20.3754
G1 X12.3233 Y19.7663
G1 X11.7139 Y19.157
G1 X11.5587 Y19.0018
G3 X11.4255 Y18.6802 I0.3216 J-0.3216
G1 Y18.2579
G1 X11.1061 Y17.9385
G1 X10.5314 Y17.3638
G1 X10.1791
G3 X9.8372 Y16.6091 I0.0 J-0.4548
G1 X9.8809 Y16.5036
G3 X9.9119 Y16.3873 I0.4511 J0.058
G1 X9.9516 Y16.2916
G3 X9.9824 Y16.1762 I0.451 J0.0586
G1 X10.0221 Y16.0803
G3 X10.0529 Y15.9646 I0.4511 J0.0581
G1 X10.0924 Y15.869
G3 X10.1235 Y15.7525 I0.4511 J0.0578
G1 X10.1631 Y15.657
G3 X10.194 Y15.541 I0.4511 J0.0582
G1 X10.2527 Y15.3995
G3 X11.1276 Y15.5738 I0.4201 J0.1742
G1 Y16.5832
G1 X11.1666 Y16.6772
G1 X11.1754 Y16.686
G1 X11.2388 Y16.7493
G1 X11.3332 Y16.7885
G1 X12.7041
G1 X12.7985 Y16.7493
G1 X12.8619 Y16.686
G1 X12.8753 Y16.6727
G3 X13.5964 Y16.5684 I0.3995 J0.2173
G1 X13.7142 Y16.6862
G1 X13.7708 Y16.7428
G1 X13.7772 Y16.7492
G1 X13.8719 Y16.7885
G1 X15.5249
G1 X15.5815 Y16.765
G3 X15.9305 Y16.7648 I0.1747 J0.4199
G1 X15.9875 Y16.7885
G1 X17.639
G3 X18.0663 Y17.0875 I0.0 J0.4548
G0 Z3.0
G0 X15.6209 Y16.5635
G0 Z0.285
G1 F300.0 Z-0.125
G3 F500.0 X15.4742 Y16.6821 I-0.1467 J-0.0314
G1 X13.9228
G3 X13.7874 Y16.5968 I0.0 J-0.15
G3 X13.7167 Y16.526 I0.0647 J-0.1353
G3 X13.6466 Y16.4559 I0.065 J-0.1352
G3 X13.5759 Y16.3852 I0.0646 J-0.1354
G3 X13.4906 Y16.2499 I0.0647 J-0.1353
G1 Y16.2362
G3 X13.4346 Y16.1735 I0.0794 J-0.1273
G3 X13.3644 Y16.1034 I0.065 J-0.1352
G3 X13.2936 Y16.0325 I0.0646 J-0.1354
G3 X13.2233 Y15.9621 I0.065 J-0.1352
G3 X13.138 Y15.8267 I0.0647 J-0.1353
G1 Y15.8131
G3 X13.0819 Y15.7503 I0.0793 J-0.1273
G3 X13.0117 Y15.6802 I0.065 J-0.1352
G3 X12.9409 Y15.6093 I0.0646 J-0.1354
G3 X12.8707 Y15.5389 I0.0652 J-0.1351
G3 X12.8033 Y15.4745 I0.0647 J-0.1353
G1 Y15.5448
G1 Y15.6152
G1 Y15.6858
G1 Y15.7564
G1 Y15.8267
G1 Y15.8974
G1 Y15.968
G1 Y16.0383
G1 Y16.1089
G1 Y16.1795
G1 Y16.2499
G1 Y16.3205
G1 Y16.3909
G1 Y16.4615
G1 Y16.5321
G3 X12.6533 Y16.6821 I-0.15 J0.0
G1 X11.3838
G3 X11.2338 Y16.5321 I0.0 J-0.15
G1 Y16.4615
G1 Y16.3909
G1 Y16.3203
G1 Y16.2499
G1 Y16.1793
G1 Y16.1089
G1 Y16.0383
G1 Y15.9677
G1 Y15.8974
G1 Y15.8267
G1 Y15.7561
G1 Y15.6858
G1 Y15.6152
G1 Y15.5445
G1 Y15.4742
G1 Y15.4036
G1 Y15.333
G1 Y15.2626
G1 Y15.192
G1 Y15.1216
G1 Y15.051
G1 Y14.9804
G1 Y14.9101
G3 X11.2339 Y14.9039 I0.15 J0.0
G1 Y14.8394
G1 Y14.7688
G1 Y14.6985
G1 Y14.6279
G1 Y14.5572
G3 X11.234 Y14.5511 I0.15 J0.0
G1 Y14.4869
G1 Y14.4163
G1 Y14.3457
G1 Y14.284
G3 X11.2338 Y14.2753 I0.1497 J-0.0087
G1 Y14.2047
G1 Y14.1341
G3 X11.2339 Y14.1279 I0.15 J0.0
G1 Y14.0637
G1 Y13.9931
G1 Y13.9228
G1 Y13.8521
G3 X11.234 Y13.846 I0.15 J0.0
G1 Y13.7815
G1 Y13.7112
G1 Y13.6406
G1 Y13.5764
G3 X11.2339 Y13.5702 I0.1499 J-0.0062
G1 Y13.4996
G1 Y13.4352
G3 X11.2338 Y13.429 I0.1499 J-0.0062
G1 Y13.3584
G1 Y13.288
G1 Y13.2174
G1 Y13.1468
G1 Y13.0764
G1 Y13.0058
G1 Y12.9355
G1 Y12.8648
G1 Y12.7942
G1 Y12.7239
G1 Y12.6533
G1 Y12.5827
G1 Y12.5123
G3 X11.3838 Y12.3623 I0.15 J0.0
G1 X12.6533
G3 X12.8033 Y12.5123 I0.0 J0.15
G1 Y12.5829
G1 Y12.6533
G1 Y12.7239
G1 Y12.7945
G1 Y12.8648
G1 Y12.9355
G1 Y13.0061
G1 Y13.0764
G1 Y13.147
G1 Y13.2174
G1 Y13.288
G1 Y13.3018
G3 X12.8591 Y13.3643 I-0.0795 J0.1272
G3 X12.9296 Y13.4346 I-0.0647 J0.1353
G3 X13.0002 Y13.5052 I-0.0647 J0.1353
G3 X13.0855 Y13.6406 I-0.0647 J0.1353
G1 Y13.6543
G3 X13.1415 Y13.7171 I-0.0794 J0.1273
G3 X13.2116 Y13.7874 I-0.0652 J0.1351
G3 X13.2527 Y13.8164 I-0.0647 J0.1353
G3 X13.2791 Y13.7955 I0.1058 J0.1063
G1 Y13.7815
G3 X13.3495 Y13.6544 I0.15 J0.0
G1 Y13.6406
G3 X13.4201 Y13.5133 I0.15 J0.0
G1 Y13.4996
G3 X13.4906 Y13.3724 I0.15 J0.0
G1 Y13.3584
G3 X13.561 Y13.2312 I0.15 J0.0
G1 Y13.2174
G3 X13.6317 Y13.0901 I0.15 J0.0
G1 Y13.0764
G3 X13.702 Y12.9493 I0.15 J0.0
G1 Y12.9355
G3 X13.7728 Y12.8081 I0.15 J0.0
G1 Y12.7942
G1 Y12.7239
G3 X13.8434 Y12.5966 I0.15 J0.0
G1 Y12.5827
G3 X13.9283 Y12.4475 I0.15 J0.0
G3 X14.0636 Y12.3623 I0.1353 J0.0648
G1 X15.5447
G3 X15.6947 Y12.5123 I0.0 J0.15
G1 Y12.5765
G3 X15.6948 Y12.5827 I-0.1499 J0.0062
G1 Y12.6533
G3 X15.6242 Y12.7805 I-0.15 J0.0
G1 Y12.7945
G3 X15.5536 Y12.9218 I-0.15 J0.0
G1 Y12.9355
G3 X15.4685 Y13.0707 I-0.15 J0.0
G3 X15.4127 Y13.1332 I-0.1354 J-0.0646
G1 Y13.147
G3 X15.3421 Y13.2743 I-0.15 J0.0
G1 Y13.288
G3 X15.2714 Y13.4154 I-0.15 J0.0
G1 Y13.429
G3 X15.1866 Y13.5641 I-0.15 J0.0
G3 X15.1305 Y13.6269 I-0.1354 J-0.0645
G1 Y13.6406
G3 X15.0599 Y13.7678 I-0.15 J0.0
G1 Y13.7818
G3 X14.9896 Y13.9089 I-0.15 J0.0
G1 Y13.9228
G3 X14.9043 Y14.0581 I-0.15 J0.0
G3 X14.8483 Y14.1206 I-0.1353 J-0.0647
G1 Y14.1343
G3 X14.7779 Y14.2615 I-0.15 J0.0
G1 Y14.2753
G3 X14.7075 Y14.4024 I-0.15 J0.0
G1 Y14.4163
G3 X14.6369 Y14.5435 I-0.15 J0.0
G1 Y14.5575
G3 X14.5516 Y14.6928 I-0.15 J0.0
G3 X14.4958 Y14.7551 I-0.1352 J-0.065
G1 Y14.7691
G3 X14.4252 Y14.8964 I-0.15 J0.0
G1 Y14.9101
G3 X14.3816 Y15.0157 I-0.15 J0.0
G3 X14.4107 Y15.0568 I-0.1062 J0.1059
G3 X14.4812 Y15.1274 I-0.0649 J0.1352
G3 X14.5514 Y15.1976 I-0.0649 J0.1352
G3 X14.6222 Y15.2683 I-0.0646 J0.1354
G3 X14.7075 Y15.4036 I-0.0647 J0.1353
G1 Y15.4174
G3 X14.7634 Y15.48 I-0.0795 J0.1272
G3 X14.8337 Y15.5505 I-0.065 J0.1352
G3 X14.904 Y15.6207 I-0.0649 J0.1352
G3 X14.9748 Y15.6914 I-0.0646 J0.1354
G3 X15.0455 Y15.7622 I-0.0647 J0.1353
G3 X15.1156 Y15.8323 I-0.065 J0.1352
G3 X15.1864 Y15.9032 I-0.0646 J0.1354
G3 X15.2567 Y15.9736 I-0.065 J0.1352
G3 X15.3272 Y16.0439 I-0.0647 J0.1353
G3 X15.3979 Y16.1146 I-0.0646 J0.1354
G3 X15.4832 Y16.2499 I-0.0647 J0.1353
G1 Y16.2638
G3 X15.5389 Y16.3262 I-0.0796 J0.1271
G3 X15.6242 Y16.4615 I-0.0647 J0.1353
G1 Y16.5321
G3 X15.6209 Y16.5635 I-0.15 J0.0
G0 Z3.0
G0 X15.4255 Y15.6822
G0 Z0.285
G1 F300.0 Z-0.125
G3 F500.0 X15.0027 Y15.557 I-0.0984 J-0.444
G1 X14.9906 Y15.5446
G1 X14.9892 Y15.5432
G1 X14.98 Y15.534
G1 X14.9481 Y15.5023
G1 X14.9115 Y15.4658
G1 X14.9081 Y15.4624
G3 X14.9073 Y15.4616 I0.1059 J-0.1062
G1 X14.8867 Y15.4407
G3 X14.7903 Y15.2957 I0.3236 J-0.3196
G1 X14.7749 Y15.2585
G3 X14.6785 Y14.7645 I0.3236 J-0.3195
G1 X14.7197 Y14.6655
G3 X14.768 Y14.5778 I0.42 J0.1745
G1 X14.7903 Y14.5242
G3 X14.8385 Y14.4367 I0.42 J0.1745
G1 X14.8604 Y14.384
G3 X14.9095 Y14.2949 I0.4203 J0.1738
G3 X15.7819 Y14.475 I0.4177 J0.18
G1 Y15.0505
G1 Y15.1801
G1 Y15.2382
G3 X15.4255 Y15.6822 I-0.4548 J0.0
G0 Z3.0
G0 X11.296 Y18.2842
G0 Z0.285
G1 F300.0 Z-0.125
G3 F500.0 X11.3191 Y18.3642 I-0.1269 J0.08
G1 Y18.9127
G1 X15.6923 Y23.2858
G3 X16.6858 Y22.8804 I0.9935 J1.0146
G1 X19.2258
G3 Y25.7204 I0.0 J1.42
G1 X16.6858
G3 X15.666 Y25.2886 I0.0 J-1.42
G1 X15.3093
G3 X14.6106 Y24.9992 I0.0 J-0.9882
G1 X9.9216 Y20.3102
G1 X9.3731
G3 X9.267 Y20.2663 I0.0 J-0.15
G1 X8.5231 Y19.5224
G3 X8.4791 Y19.4163 I0.1061 J-0.1061
G1 Y18.3642
G3 X8.5231 Y18.2581 I0.15 J0.0
G1 X9.267 Y17.5142
G3 X9.3731 Y17.4702 I0.1061 J0.1061
G1 X10.4252
G3 X10.5313 Y17.5142 I0.0 J0.15
G1 X11.2752 Y18.2581
G3 X11.296 Y18.2842 I-0.1061 J0.1061
G0 Z3.0
G0 X9.6561 Y16.6384
G0 Z0.285
G1 F300.0 Z-0.125
G3 F500.0 X9.5503 Y16.6821 I-0.1059 J-0.1063
G1 X8.0692
G3 X7.9338 Y16.5967 I0.0 J-0.15
G3 X7.8487 Y16.4615 I0.0649 J-0.1352
G1 Y16.3909
G1 Y16.3771
G3 X7.7782 Y16.2499 I0.0795 J-0.1272
G1 Y16.1793
G1 Y16.1654
G3 X7.708 Y16.0383 I0.0798 J-0.127
G1 Y15.9677
G1 Y15.954
G3 X7.6374 Y15.8267 I0.0794 J-0.1273
G1 Y15.7561
G1 Y15.7425
G3 X7.5666 Y15.6152 I0.0793 J-0.1273
G1 Y15.5445
G1 Y15.5307
G3 X7.4963 Y15.4036 I0.0796 J-0.1271
G1 Y15.333
G1 Y15.3194
G3 X7.4258 Y15.1922 I0.0795 J-0.1272
G1 Y15.1278
G3 X7.4257 Y15.1216 I0.1499 J-0.0062
G1 Y15.1079
G3 X7.3552 Y14.9807 I0.0795 J-0.1272
G1 Y14.9668
G3 X7.2845 Y14.8394 I0.0793 J-0.1273
G1 Y14.7688
G1 Y14.755
G3 X7.2141 Y14.6279 I0.0796 J-0.1271
G1 Y14.5572
G1 Y14.5435
G3 X7.1436 Y14.4163 I0.0795 J-0.1272
G1 Y14.3521
G3 X7.1435 Y14.3459 I0.1499 J-0.0062
G1 Y14.3317
G3 X7.0733 Y14.2047 I0.0798 J-0.127
G1 Y14.1341
G1 Y14.1206
G3 X7.0028 Y13.9934 I0.0795 J-0.1272
G1 Y13.9228
G1 Y13.9092
G3 X6.9319 Y13.7818 I0.0791 J-0.1274
G1 Y13.7112
G1 Y13.6974
G3 X6.8614 Y13.5702 I0.0795 J-0.1272
G1 Y13.4996
G1 Y13.4857
G3 X6.7912 Y13.3586 I0.0798 J-0.127
G1 Y13.288
G1 Y13.2744
G3 X6.7204 Y13.147 I0.0793 J-0.1273
G1 Y13.0764
G1 Y13.0626
G3 X6.6501 Y12.9355 I0.0796 J-0.1271
G1 Y12.9218
G3 X6.5795 Y12.7945 I0.0794 J-0.1273
G1 Y12.7239
G1 Y12.7102
G3 X6.5089 Y12.5829 I0.0794 J-0.1273
G1 Y12.5123
G3 X6.6589 Y12.3623 I0.15 J0.0
G1 X7.9284
G3 X8.0784 Y12.5123 I0.0 J0.15
G1 Y12.526
G3 X8.149 Y12.6533 I-0.0794 J0.1273
G1 Y12.7239
G1 Y12.7945
G1 Y12.8083
G3 X8.2193 Y12.9355 I-0.0796 J0.1271
G1 Y12.9968
G1 X9.4004
G1 Y12.9355
G3 X9.4708 Y12.8083 I0.15 J0.0
G1 Y12.7942
G1 Y12.7239
G1 Y12.6533
G3 X9.5414 Y12.526 I0.15 J0.0
G1 Y12.5123
G3 X9.6914 Y12.3623 I0.15 J0.0
G1 X10.9609
G3 X11.1109 Y12.5123 I0.0 J0.15
G1 Y12.5829
G3 X11.0403 Y12.7102 I-0.15 J0.0
G1 Y12.7239
G1 Y12.7945
G3 X10.9696 Y12.9218 I-0.15 J0.0
G1 Y12.9355
G3 X10.8993 Y13.0626 I-0.15 J0.0
G1 Y13.0764
G1 Y13.147
G3 X10.8288 Y13.2742 I-0.15 J0.0
G1 Y13.288
G1 Y13.3586
G3 X10.7581 Y13.486 I-0.15 J0.0
G1 Y13.4996
G1 Y13.5702
G3 X10.6876 Y13.6974 I-0.15 J0.0
G1 Y13.7112
G1 Y13.7818
G3 X10.6172 Y13.9089 I-0.15 J0.0
G1 Y13.9228
G1 Y13.9934
G3 X10.5467 Y14.1206 I-0.15 J0.0
G1 Y14.1343
G3 X10.5466 Y14.1405 I-0.15 J0.0
G1 Y14.2047
G3 X10.4761 Y14.3319 I-0.15 J0.0
G1 Y14.3459
G1 Y14.4163
G3 X10.4055 Y14.5435 I-0.15 J0.0
G1 Y14.5575
G1 Y14.6279
G3 X10.335 Y14.7551 I-0.15 J0.0
G1 Y14.7691
G1 Y14.8394
G3 X10.2647 Y14.9666 I-0.15 J0.0
G1 Y14.9807
G3 X10.194 Y15.1079 I-0.15 J0.0
G1 Y15.1216
G1 Y15.1922
G3 X10.1234 Y15.3195 I-0.15 J0.0
G1 Y15.3332
G3 X10.1233 Y15.3394 I-0.15 J0.0
G1 Y15.4036
G3 X10.0528 Y15.5308 I-0.15 J0.0
G1 Y15.5448
G1 Y15.6152
G3 X9.9826 Y15.7422 I-0.15 J0.0
G1 Y15.7564
G1 Y15.8267
G3 X9.912 Y15.954 I-0.15 J0.0
G1 Y15.968
G1 Y16.0383
G3 X9.8412 Y16.1657 I-0.15 J0.0
G1 Y16.1795
G1 Y16.2499
G3 X9.7708 Y16.3771 I-0.15 J0.0
G1 Y16.3909
G1 Y16.4615
G3 X9.6856 Y16.5967 I-0.15 J0.0
G3 X9.6561 Y16.6384 I-0.1354 J-0.0646
G0 Z3.0
G0 X6.3803 Y15.726
G0 Z0.285
G1 F300.0 Z-0.125
G3 F500.0 X6.3152 Y15.813 I-0.1445 J-0.0402
G1 Y15.8267
G1 Y15.8974
G1 Y15.968
G3 X6.2446 Y16.0952 I-0.15 J0.0
G1 Y16.1089
G3 X6.1598 Y16.244 I-0.15 J0.0
G3 X6.0889 Y16.3149 I-0.1354 J-0.0645
G3 X6.0186 Y16.3851 I-0.1352 J-0.065
G3 X5.8833 Y16.4705 I-0.1354 J-0.0646
G1 X5.8692
G3 X5.7421 Y16.5409 I-0.1271 J-0.0796
G1 X5.7285
G3 X5.6012 Y16.6115 I-0.1273 J-0.0794
G1 X5.3759
G3 X5.2487 Y16.6821 I-0.1273 J-0.0794
G1 X2.7803
G3 X2.6303 Y16.5321 I0.0 J-0.15
G1 Y16.4615
G1 Y16.397
G3 X2.6302 Y16.3909 I0.1499 J-0.0062
G1 Y16.3203
G1 Y16.2499
G3 X2.6303 Y16.2437 I0.15 J0.0
G1 Y16.1793
G1 Y16.1151
G3 X2.6302 Y16.1089 I0.1499 J-0.0062
G1 Y16.0383
G1 Y15.9677
G1 Y15.8974
G1 Y15.8267
G1 Y15.7561
G1 Y15.6858
G1 Y15.6152
G3 X2.6303 Y15.609 I0.15 J0.0
G1 Y15.5445
G1 Y15.4742
G1 Y15.4036
G1 Y15.333
G1 Y15.2626
G1 Y15.192
G1 Y15.1216
G1 Y15.051
G1 Y14.9804
G1 Y14.9101
G1 Y14.8456
G3 X2.6302 Y14.8394 I0.1499 J-0.0062
G1 Y14.7688
G3 X2.6304 Y14.7601 I0.15 J0.0
G1 Y14.7046
G3 X2.6303 Y14.6985 I0.1499 J-0.0062
G1 Y14.634
G3 X2.6302 Y14.6279 I0.1499 J-0.0062
G1 Y14.5572
G3 X2.6303 Y14.5511 I0.15 J0.0
G1 Y14.4931
G3 X2.6302 Y14.4869 I0.1499 J-0.0062
G1 Y14.4163
G1 Y14.3457
G1 Y14.2753
G1 Y14.2047
G3 X2.6303 Y14.1985 I0.15 J0.0
G1 Y14.1341
G1 Y14.0637
G1 Y13.9931
G1 Y13.9228
G1 Y13.8521
G1 Y13.7815
G1 Y13.7112
G1 Y13.6406
G1 Y13.57
G1 Y13.4996
G1 Y13.429
G1 Y13.3584
G1 Y13.288
G1 Y13.2174
G1 Y13.1468
G1 Y13.0826
G3 X2.6302 Y13.0764 I0.1499 J-0.0062
G1 Y13.0058
G1 Y12.9355
G1 Y12.8648
G1 Y12.7942
G3 X2.6303 Y12.7881 I0.15 J0.0
G1 Y12.73
G3 X2.6302 Y12.7239 I0.1499 J-0.0062
G1 Y12.6533
G3 X2.6303 Y12.6471 I0.15 J0.0
G1 Y12.5827
G1 Y12.5123
G3 X2.7803 Y12.3623 I0.15 J0.0
G1 X5.1074
G3 X5.2345 Y12.4327 I0.0 J0.15
G1 X5.6012
G3 X5.7285 Y12.5033 I0.0 J0.15
G1 X5.8127
G3 X5.9399 Y12.5739 I0.0 J0.15
G1 X5.9538
G3 X6.0809 Y12.6442 I0.0 J0.15
G1 X6.0946
G3 X6.2299 Y12.7295 I0.0 J0.15
G3 X6.3152 Y12.8648 I-0.0647 J0.1353
G1 Y12.8785
G3 X6.3712 Y12.9412 I-0.0794 J0.1273
G3 X6.4563 Y13.0764 I-0.0649 J0.1352
G1 Y13.0901
G3 X6.5269 Y13.2174 I-0.0794 J0.1273
G1 Y13.288
G1 Y13.3586
G1 Y13.3724
G3 X6.5974 Y13.4996 I-0.0795 J0.1272
G1 Y13.5702
G3 X6.5973 Y13.5764 I-0.15 J0.0
G1 Y13.6406
G1 Y13.7112
G1 Y13.7818
G1 Y13.8521
G3 X6.5269 Y13.9793 I-0.15 J0.0
G1 Y13.9934
G1 Y14.0637
G1 Y14.1343
G3 X6.4415 Y14.2697 I-0.15 J0.0
G3 X6.3858 Y14.3319 I-0.1352 J-0.065
G1 Y14.3459
G3 X6.3004 Y14.4813 I-0.15 J0.0
G3 X6.2299 Y14.5516 I-0.1352 J-0.065
G3 X6.0946 Y14.6369 I-0.1353 J-0.0647
G1 X6.081
G3 X6.005 Y14.6985 I-0.1273 J-0.0794
G3 X6.0891 Y14.7747 I-0.0513 J0.141
G3 X6.1744 Y14.9101 I-0.0647 J0.1353
G1 Y14.9239
G3 X6.23 Y14.9862 I-0.0796 J0.1271
G3 X6.3155 Y15.1216 I-0.0645 J0.1354
G1 Y15.1922
G1 Y15.2626
G1 Y15.2765
G3 X6.3857 Y15.4036 I-0.0798 J0.127
G1 Y15.4655
G3 X6.386 Y15.4742 I-0.1497 J0.0087
G1 Y15.5448
G3 X6.3858 Y15.551 I-0.15 J0.0
G1 Y15.6152
G1 Y15.6858
G3 X6.3803 Y15.726 I-0.15 J0.0
G0 Z3.0
G0 X5.4927 Y17.4863
G0 Z0.285
G1 F300.0 Z-0.125
G3 F500.0 X5.5313 Y17.5142 I-0.0675 J0.1339
G1 X6.2752 Y18.2581
G3 X6.3191 Y18.3642 I-0.1061 J0.1061
G1 Y19.4163
G3 X6.2752 Y19.5224 I-0.15 J0.0
G1 X5.5313 Y20.2663
G3 X5.4252 Y20.3102 I-0.1061 J-0.1061
G1 X4.3731
G3 X4.309 Y20.2958 I0.0 J-0.15
G1 Y27.655
G3 X5.3758 Y29.0304 I-0.3532 J1.3754
G1 Y31.5704
G3 X2.5358 I-1.42 J0.0
G1 Y29.0304
G3 X3.6026 Y27.655 I1.42 J0.0
G1 Y19.8336
G3 X3.6528 Y19.6521 I0.3532 J0.0
G1 X3.5231 Y19.5224
G3 X3.4792 Y19.4163 I0.1061 J-0.1061
G1 Y18.3642
G3 X3.5231 Y18.2581 I0.15 J0.0
G1 X4.267 Y17.5142
G3 X4.3731 Y17.4702 I0.1061 J0.1061
G1 X5.4252
G3 X5.4927 Y17.4863 I0.0 J0.15
G0 Z3.0
G0 X4.1947 Y17.3059
G0 Z0.285
G1 F300.0 Z-0.125
G3 F500.0 X4.0658 Y17.5649 I-0.4505 J-0.0626
G1 X3.6922 Y17.9385
G1 X3.3728 Y18.2579
G1 Y18.8354
G1 Y19.4447
G1 Y19.5228
G3 X3.4962 Y19.8344 I-0.3314 J0.3115
G1 Y20.0538
G1 Y20.6632
G1 Y21.2722
G1 Y21.8816
G1 Y22.4907
G1 Y23.1
G1 Y23.7091
G1 Y24.3185
G1 Y24.9276
G1 Y25.5369
G1 Y26.146
G1 Y26.7553
G1 Y27.2646
G3 X3.2155 Y27.6848 I-0.4548 J0.0
G1 X3.0912 Y27.7363
G1 X2.6617 Y28.1656
G1 X2.503 Y28.549
G3 X1.628 Y28.3751 I-0.4202 J-0.1739
G1 Y27.9738
G1 Y26.7553
G1 Y26.146
G1 Y25.5369
G1 Y24.9276
G1 Y24.3185
G1 Y23.7091
G1 Y23.1
G1 Y22.4907
G1 Y21.8816
G1 Y21.2722
G1 Y20.6632
G1 Y20.0538
G1 Y19.4447
G1 Y18.8354
G1 Y18.2263
G1 Y17.6169
G1 Y17.0078
G1 Y16.7066
G3 X2.503 Y16.5327 I0.4548 J0.0
G1 X2.5629 Y16.6772
G1 X2.5716 Y16.686
G1 X2.635 Y16.7493
G1 X2.7294 Y16.7885
G1 X3.7442
G3 X4.1947 Y17.3059 I0.0 J0.4548
G0 Z3.0
G0 X4.8333 Y25.1461
G0 Z0.285
G1 F300.0 Z-0.125
G3 F500.0 X5.1915 Y25.2775 I0.0369 J0.4533
G1 X5.2583 Y25.3442
G1 X5.3195 Y25.3696
G3 X5.5998 Y25.7896 I-0.1745 J0.42
G1 Y26.146
G1 Y26.7553
G1 Y27.4178
G3 X4.8234 Y27.7394 I-0.4548 J0.0
G1 X4.8203 Y27.7363
G1 X4.6961 Y27.6848
G3 X4.4154 Y27.2646 I0.1741 J-0.4201
G1 Y26.7553
G1 Y26.146
G1 Y25.5994
G3 X4.8333 Y25.1461 I0.4548 J0.0
G0 Z3.0
G0 X15.6517 Y35.3272
G0 Z0.285
G1 F300.0 Z-0.125
G3 F500.0 X16.6858 Y34.8804 I1.0341 J0.9732
G1 X19.2258
G3 Y37.7204 I0.0 J1.42
G1 X16.6858
G3 X15.6517 Y35.3272 I0.0 J-1.42
G0 Z3.0
G0 X22.0339 Y35.443
G0 Z0.285
G1 F300.0 Z-0.125
G3 F500.0 X22.8102 Y35.1297 I0.4547 J0.0083
G1 X22.8438 Y35.1632
G3 X22.6944 Y35.9058 I-0.3216 J0.3216
G1 X22.6609 Y35.9195
G3 X22.0339 Y35.4985 I-0.1722 J-0.4209
G1 Y35.4513
G3 Y35.443 I0.4548 J0.0
G0 Z3.0
G0 X27.2253 Y33.6682
G0 Z0.285
G1 F300.0 Z-0.125
G3 F500.0 X27.2063 Y33.5539 I0.3342 J-0.1143
G1 Y32.5392
G1 X26.9596
G3 X26.8096 Y32.3892 I0.0 J-0.15
G1 Y29.3892
G3 X26.9596 Y29.2392 I0.15 J0.0
G1 X28.1595
G3 X28.3095 Y29.3892 I0.0 J0.15
G1 Y32.3892
G3 X28.1595 Y32.5392 I-0.15 J0.0
G1 X27.9127
G1 Y33.4076
G1 X27.9237 Y33.4186
G3 X28.7156 Y34.0568 I0.1388 J0.6383
G3 X27.7358 Y34.6225 I-0.6532 J0.0
G3 X27.4242 Y33.9181 I0.3266 J-0.5657
G1 X27.3098 Y33.8037
G3 X27.2253 Y33.6682 I0.2498 J-0.2498
G0 Z3.0
G0 X28.3949 Y33.2526
G0 Z0.285
G1 F300.0 Z-0.125
G3 F500.0 X28.8234 Y32.6455 I0.4285 J-0.1523
G1 X28.9166
G3 X29.3714 Y33.1003 I0.0 J0.4548
G1 Y33.1937
G3 X28.5946 Y33.5149 I-0.4548 J0.0
G1 X28.5014 Y33.4214
G3 X28.3949 Y33.2526 I0.322 J-0.3212
G0 Z3.0
G0 X30.1382
G0 Z0.285
G1 F300.0 Z-0.125
G1 F500.0 Y33.0073
G3 X30.7655 Y32.5865 I0.4548 J0.0
G1 X30.8175 Y32.6078
G3 X31.0999 Y33.0286 I-0.1724 J0.4208
G1 Y33.4569
G1 Y34.066
G1 Y34.9763
G3 X30.9667 Y35.2979 I-0.4548 J0.0
G1 X30.6586 Y35.606
G1 X30.0584 Y36.2062
G3 X30.0403 Y36.2243 I-0.3305 J-0.3124
G1 X29.5567 Y36.7079
G3 X29.2351 Y36.8411 I-0.3216 J-0.3216
G1 X29.1043
G3 X28.7828 Y36.0646 I0.0 J-0.4548
G1 X29.2755 Y35.5721
G1 X29.8758 Y34.9718
G3 X29.8937 Y34.954 I0.3304 J0.3126
G1 X29.9082 Y34.9394
G1 X29.9083
G1 X29.9082
G1 X30.0799 Y34.7678
G1 X30.1382 Y34.6268
G1 Y34.066
G1 Y33.4569
G1 Y33.2526
G0 Z3.0
G0 X32.0191
G0 Z0.285
G1 F300.0 Z-0.125
G1 F500.0 Y33.0286
G3 X32.3005 Y32.6082 I0.4548 J0.0
G1 X32.3861 Y32.5729
G3 X32.7329 I0.1734 J0.4204
G1 X32.8185 Y32.6082
G3 X33.0999 Y33.0286 I-0.1734 J0.4204
G1 Y33.4569
G1 Y34.066
G1 Y34.6753
G1 Y35.2844
G1 Y36.2908
G3 X32.9667 Y36.6124 I-0.4548 J0.0
G1 X32.7546 Y36.8244
G1 X32.1544 Y37.4246
G3 X32.1363 Y37.4427 I-0.3305 J-0.3124
G1 X31.5362 Y38.0429
G1 X31.4607 Y38.1183
G3 X31.1391 Y38.2515 I-0.3216 J-0.3216
G1 X30.4109
G3 X30.0893 Y37.4751 I0.0 J-0.4548
G1 X30.1648 Y37.3997
G1 X31.3832 Y36.1813
G1 X31.9491 Y35.6153
G1 X32.0191 Y35.4464
G1 Y35.2844
G1 Y34.6753
G1 Y34.066
G1 Y33.4569
G1 Y33.2526
G0 Z3.0
G0 X34.0191
G0 Z0.285
G1 F300.0 Z-0.125
G1 F500.0 Y33.0286
G3 X34.3005 Y32.6082 I0.4548 J0.0
G1 X34.3861 Y32.5729
G3 X34.7329 I0.1734 J0.4204
G1 X34.8185 Y32.6082
G3 X35.0999 Y33.0286 I-0.1734 J0.4204
G1 Y33.4569
G1 Y34.066
G1 Y34.6753
G1 Y35.2844
G1 Y35.8938
G1 Y36.336
G3 X34.9667 Y36.6576 I-0.4548 J0.0
G1 X34.7998 Y36.8244
G1 X34.7955 Y36.8288
G3 X34.0191 Y36.5072 I-0.3216 J-0.3216
G1 Y36.5028
G1 Y35.8938
G1 Y35.2844
G1 Y34.6753
G1 Y34.066
G1 Y33.4569
G1 Y33.2526
G0 Z3.0
G0 X34.849 Y32.4906
G0 Z0.285
G1 F300.0 Z-0.125
G3 F500.0 X34.8095 Y32.3892 I0.1105 J-0.1014
G1 Y29.3892
G3 X34.9595 Y29.2392 I0.15 J0.0
G1 X36.1594
G3 X36.3094 Y29.3892 I0.0 J0.15
G1 Y32.3892
G3 X36.1594 Y32.5392 I-0.15 J0.0
G1 X35.9127
G1 Y36.7147
G3 X35.8093 Y36.9644 I-0.3532 J0.0
G1 X32.6499 Y40.124
G3 X32.6648 Y40.2628 I-0.6383 J0.1388
G3 X31.685 Y40.8285 I-0.6532 J0.0
G3 Y39.6971 I0.3266 J-0.5657
G3 X32.1504 Y39.6245 I0.3266 J0.5657
G1 X35.2063 Y36.5684
G1 Y32.5392
G1 X34.9595
G3 X34.849 Y32.4906 I0.0 J-0.15
G0 Z3.0
G0 X36.8097 Y32.3964
G0 Z0.285
G1 F300.0 Z-0.125
G3 F500.0 X36.8095 Y32.3892 I0.1498 J-0.0072
G1 Y29.3892
G3 X36.8754 Y29.265 I0.15 J0.0
G1 X35.8851 Y28.2747
G1 X34.4094
G3 X34.1596 Y28.1712 I0.0 J-0.3532
G1 X33.006 Y27.0176
G3 X31.7803 Y26.1612 I-0.3137 J-0.8564
G1 Y24.6372
G3 X33.6043 I0.912 J0.0
G1 Y26.1612
G3 X33.5237 Y26.5362 I-0.912 J0.0
G1 X34.5557 Y27.5683
G1 X36.0314
G3 X36.2812 Y27.6717 I0.0 J0.3532
G1 X37.8092 Y29.1998
G3 X37.8432 Y29.2392 I-0.2497 J0.2497
G1 X38.1594
G3 X38.3094 Y29.3892 I0.0 J0.15
G1 Y32.3892
G3 X38.1594 Y32.5392 I-0.15 J0.0
G1 X36.9595
G3 X36.8097 Y32.3964 I0.0 J-0.15
G0 Z3.0
G0 X38.8095 Y32.3897
G0 Z0.285
G1 F300.0 Z-0.125
G3 F500.0 Y32.3892 I0.15 J-0.0005
G1 Y29.3892
G3 X38.9595 Y29.2392 I0.15 J0.0
G1 X39.2063
G1 Y28.1404
G1 X36.8724 Y25.8063
G1 X36.1443
G1 Y26.1612
G3 X34.3203 I-0.912 J0.0
G1 Y24.6372
G3 X36.1443 I0.912 J0.0
G1 Y25.0999
G1 X37.0187
G3 X37.2685 Y25.2033 I0.0 J0.3532
G1 X39.8092 Y27.7444
G3 X39.9127 Y27.9941 I-0.2498 J0.2497
G1 Y29.2392
G1 X40.1594
G3 X40.3094 Y29.3892 I0.0 J0.15
G1 Y32.3892
G3 X40.1594 Y32.5392 I-0.15 J0.0
G1 X38.9595
G3 X38.8095 Y32.3897 I0.0 J-0.15
G0 Z3.0
G0 X40.2395 Y26.0404
G0 Z0.285
G1 F300.0 Z-0.125
G3 F500.0 X40.1664 Y26.0001 I0.033 J-0.1463
G1 X38.5865 Y24.4202
G3 Y24.2081 I0.1061 J-0.1061
G1 X39.4481 Y23.3465
G3 X39.6602 I0.1061 J0.1061
G1 X41.2401 Y24.9264
G3 Y25.1385 I-0.1061 J0.1061
G1 X40.3785 Y26.0001
G3 X40.2395 Y26.0404 I-0.1061 J-0.1061
G0 Z3.0
G0 X41.8039 Y24.3695
G0 Z0.285
G1 F300.0 Z-0.125
G3 F500.0 X41.8004 Y24.3661 I0.1025 J-0.1095
G1 X40.2205 Y22.7862
G3 Y22.5741 I0.1061 J-0.1061
G1 X41.0821 Y21.7125
G3 X41.2942 I0.1061 J0.1061
G1 X42.8741 Y23.2924
G3 Y23.5045 I-0.1061 J0.1061
G1 X42.6931 Y23.6855
G1 X43.4022 Y24.3945
G1 X44.2067
G1 X48.9363 Y19.6649
G1 Y7.6934
G1 X48.1993 Y6.9564
G1 X48.077 Y7.0786
G3 X47.971 Y7.1226 I-0.1061 J-0.1061
G1 X46.9189
G3 X46.8128 Y7.0786 I0.0 J-0.15
G1 X46.0689 Y6.3347
G3 X46.0249 Y6.2286 I0.1061 J-0.1061
G1 Y5.1765
G3 X46.0689 Y5.0704 I0.15 J0.0
G1 X46.8128 Y4.3265
G3 X46.9189 Y4.2826 I0.1061 J0.1061
G1 X47.971
G3 X48.077 Y4.3265 I0.0 J0.15
G1 X48.821 Y5.0704
G3 X48.8649 Y5.1765 I-0.1061 J0.1061
G1 Y6.2286
G3 X48.821 Y6.3347 I-0.15 J0.0
G1 X48.6988 Y6.4569
G1 X49.5392 Y7.2974
G3 X49.6427 Y7.5471 I-0.2498 J0.2498
G1 Y19.8112
G3 X49.5392 Y20.061 I-0.3532 J0.0
G1 X44.6027 Y24.9975
G3 X44.353 Y25.1009 I-0.2497 J-0.2497
G1 X43.2559
G3 X43.0062 Y24.9975 I0.0 J-0.3532
G1 X42.1936 Y24.185
G1 X42.0125 Y24.3661
G3 X41.8039 Y24.3695 I-0.1061 J-0.1061
G0 Z3.0
G0 Y16.6821
G0 Z0.285
G1 F300.0 Z-0.125
G1 F500.0 X40.5798
G3 X40.4298 Y16.5321 I0.0 J-0.15
G1 Y16.4615
G1 Y16.3909
G1 Y16.3203
G1 Y16.2499
G1 Y16.1793
G1 Y16.1089
G1 Y16.0383
G1 Y15.9677
G1 Y15.8974
G1 Y15.8267
G1 Y15.7561
G1 Y15.6858
G1 Y15.6152
G1 Y15.5445
G1 Y15.4742
G1 Y15.4036
G1 Y15.333
G1 Y15.2626
G1 Y15.192
G1 Y15.1216
G3 X40.4299 Y15.1155 I0.15 J0.0
G1 Y15.051
G1 Y14.9804
G1 Y14.9101
G1 Y14.8394
G1 Y14.7688
G1 Y14.6985
G1 Y14.6279
G1 Y14.5572
G1 Y14.4869
G1 Y14.4163
G1 Y14.3457
G1 Y14.2753
G1 Y14.2109
G3 X40.4298 Y14.2047 I0.1499 J-0.0062
G1 Y14.1341
G1 Y14.0637
G1 Y13.9931
G1 Y13.9228
G1 Y13.8521
G1 Y13.7815
G1 Y13.7112
G1 Y13.6406
G1 Y13.57
G1 Y13.4996
G1 Y13.429
G3 X40.4299 Y13.4228 I0.15 J0.0
G1 Y13.3584
G1 Y13.288
G1 Y13.2174
G1 Y13.1468
G1 Y13.0764
G1 Y13.0058
G1 Y12.9355
G1 Y12.8648
G1 Y12.7942
G1 Y12.7239
G1 Y12.6533
G1 Y12.5827
G1 Y12.5123
G3 X40.5799 Y12.3623 I0.15 J0.0
G1 X43.8944
G3 X44.0444 Y12.5123 I0.0 J0.15
G1 Y12.5829
G1 Y12.6533
G1 Y12.7239
G1 Y12.7945
G1 Y12.8648
G1 Y12.9355
G1 Y13.0061
G1 Y13.0764
G1 Y13.147
G1 Y13.2174
G1 Y13.288
G1 Y13.3586
G1 Y13.429
G3 X43.8944 Y13.579 I-0.15 J0.0
G1 X41.9993
G1 Y13.6406
G1 Y13.7112
G1 Y13.7818
G1 Y13.8521
G1 Y13.9228
G1 Y13.9934
G1 Y14.0547
G1 X43.683
G3 X43.833 Y14.2047 I0.0 J0.15
G1 Y14.2753
G1 Y14.3459
G1 Y14.4163
G1 Y14.4869
G1 Y14.5575
G1 Y14.6279
G1 Y14.6985
G1 Y14.7691
G1 Y14.8394
G1 Y14.9101
G1 Y14.9807
G1 Y15.051
G1 Y15.1216
G3 X43.683 Y15.2716 I-0.15 J0.0
G1 X41.9993
G1 Y15.3332
G1 Y15.4036
G1 Y15.4652
G1 X43.8239
G3 X43.9739 Y15.6152 I0.0 J0.15
G1 Y15.6858
G1 Y15.7564
G1 Y15.8267
G1 Y15.8974
G1 Y15.968
G1 Y16.0383
G1 Y16.1089
G1 Y16.1795
G1 Y16.2499
G1 Y16.3205
G1 Y16.3909
G1 Y16.4615
G1 Y16.5321
G3 X43.8239 Y16.6821 I-0.15 J0.0
G1 X41.8039
G0 Z3.0
G0 X40.1651 Y16.5446
G0 Z0.285
G1 F300.0 Z-0.125
G3 F500.0 X40.0157 Y16.6821 I-0.1495 J-0.0125
G1 X38.4642
G3 X38.3288 Y16.5967 I0.0 J-0.15
G3 X38.2586 Y16.5262 I0.065 J-0.1352
G3 X38.1881 Y16.4559 I0.0647 J-0.1353
G3 X38.1173 Y16.3851 I0.0646 J-0.1354
G3 X38.0323 Y16.2499 I0.065 J-0.1352
G1 Y16.2362
G3 X37.9764 Y16.1736 I0.0794 J-0.1273
G3 X37.9058 Y16.1032 I0.0647 J-0.1353
G3 X37.8354 Y16.0327 I0.0649 J-0.1352
G3 X37.7647 Y15.9619 I0.0647 J-0.1353
G3 X37.6797 Y15.8267 I0.065 J-0.1352
G1 Y15.8131
G3 X37.6237 Y15.7505 I0.0793 J-0.1273
G3 X37.5532 Y15.68 I0.0647 J-0.1353
G3 X37.4827 Y15.6094 I0.0649 J-0.1352
G3 X37.4122 Y15.5389 I0.0649 J-0.1352
G3 X37.345 Y15.4749 I0.0647 J-0.1353
G1 Y15.5448
G1 Y15.6152
G1 Y15.6858
G1 Y15.7564
G1 Y15.8267
G1 Y15.8974
G1 Y15.968
G1 Y16.0383
G1 Y16.1089
G1 Y16.1795
G1 Y16.2499
G1 Y16.3205
G1 Y16.3909
G1 Y16.4615
G1 Y16.5321
G3 X37.195 Y16.6821 I-0.15 J0.0
G1 X35.9255
G3 X35.7755 Y16.5321 I0.0 J-0.15
G1 Y16.4615
G1 Y16.3909
G1 Y16.3203
G1 Y16.2499
G1 Y16.1793
G1 Y16.1089
G1 Y16.0383
G1 Y15.9677
G1 Y15.8974
G1 Y15.8267
G1 Y15.7561
G1 Y15.6858
G1 Y15.6152
G1 Y15.5445
G1 Y15.4742
G1 Y15.4036
G1 Y15.333
G1 Y15.2626
G1 Y15.192
G1 Y15.1216
G1 Y15.051
G1 Y14.9804
G1 Y14.9101
G3 X35.7756 Y14.9039 I0.15 J0.0
G1 Y14.8394
G1 Y14.7688
G1 Y14.6985
G1 Y14.6366
G3 X35.7754 Y14.6279 I0.1497 J-0.0087
G1 Y14.5572
G3 X35.7755 Y14.5511 I0.15 J0.0
G1 Y14.4869
G1 Y14.4163
G1 Y14.3457
G1 Y14.2753
G1 Y14.2047
G1 Y14.1341
G3 X35.7756 Y14.1279 I0.15 J0.0
G1 Y14.0725
G3 X35.7754 Y14.0637 I0.1497 J-0.0087
G1 Y13.9931
G3 X35.7756 Y13.9844 I0.15 J0.0
G1 Y13.9228
G1 Y13.8583
G3 X35.7755 Y13.8521 I0.1499 J-0.0062
G1 Y13.7815
G1 Y13.7112
G1 Y13.6406
G1 Y13.5764
G3 X35.7754 Y13.5702 I0.1499 J-0.0062
G1 Y13.4996
G3 X35.7756 Y13.4909 I0.15 J0.0
G1 Y13.4352
G3 X35.7755 Y13.429 I0.1499 J-0.0062
G1 Y13.3584
G1 Y13.288
G1 Y13.2174
G1 Y13.1468
G1 Y13.0764
G1 Y13.0058
G1 Y12.9355
G1 Y12.8648
G1 Y12.7942
G1 Y12.7239
G1 Y12.6533
G1 Y12.5827
G1 Y12.5123
G3 X35.9255 Y12.3623 I0.15 J0.0
G1 X37.195
G3 X37.345 Y12.5123 I0.0 J0.15
G1 Y12.5829
G1 Y12.6533
G1 Y12.7239
G1 Y12.7945
G1 Y12.8648
G1 Y12.9355
G1 Y13.0061
G1 Y13.0764
G1 Y13.147
G1 Y13.2174
G1 Y13.288
G1 Y13.3018
G3 X37.4009 Y13.3644 I-0.0795 J0.1272
G3 X37.471 Y13.4346 I-0.065 J0.1352
G3 X37.5416 Y13.5052 I-0.0647 J0.1353
G3 X37.6269 Y13.6406 I-0.0647 J0.1353
G1 Y13.6543
G3 X37.6829 Y13.7169 I-0.0794 J0.1273
G3 X37.7534 Y13.7874 I-0.0649 J0.1352
G3 X37.7944 Y13.8164 I-0.0647 J0.1353
G3 X37.8206 Y13.7956 I0.1058 J0.1063
G1 Y13.7815
G3 X37.8912 Y13.6543 I0.15 J0.0
G1 Y13.6406
G3 X37.9618 Y13.5133 I0.15 J0.0
G1 Y13.4996
G3 X38.0323 Y13.3724 I0.15 J0.0
G1 Y13.3584
G3 X38.1028 Y13.2312 I0.15 J0.0
G1 Y13.2174
G3 X38.1731 Y13.0903 I0.15 J0.0
G1 Y13.0764
G3 X38.2438 Y12.9492 I0.15 J0.0
G1 Y12.9355
G3 X38.3145 Y12.8081 I0.15 J0.0
G1 Y12.8032
G3 X38.3142 Y12.7945 I0.1497 J-0.0087
G1 Y12.7239
G3 X38.3848 Y12.5966 I0.15 J0.0
G1 Y12.5827
G3 X38.4701 Y12.4473 I0.15 J0.0
G3 X38.6053 Y12.3623 I0.1352 J0.065
G1 X40.0864
G3 X40.2364 Y12.5123 I0.0 J0.15
G1 Y12.5829
G3 X40.2363 Y12.5891 I-0.15 J0.0
G1 Y12.6533
G3 X40.1657 Y12.7805 I-0.15 J0.0
G1 Y12.7945
G3 X40.0953 Y12.9216 I-0.15 J0.0
G1 Y12.9355
G3 X40.0102 Y13.0707 I-0.15 J0.0
G3 X39.9542 Y13.1333 I-0.1354 J-0.0646
G1 Y13.147
G3 X39.8839 Y13.2742 I-0.15 J0.0
G1 Y13.288
G3 X39.8131 Y13.4154 I-0.15 J0.0
G1 Y13.429
G3 X39.728 Y13.5642 I-0.15 J0.0
G3 X39.6723 Y13.6267 I-0.1354 J-0.0646
G1 Y13.6406
G3 X39.6017 Y13.7678 I-0.15 J0.0
G1 Y13.7818
G3 X39.531 Y13.9091 I-0.15 J0.0
G1 Y13.9228
G3 X39.4461 Y14.0579 I-0.15 J0.0
G3 X39.3901 Y14.1206 I-0.1354 J-0.0646
G1 Y14.1343
G3 X39.3196 Y14.2615 I-0.15 J0.0
G1 Y14.2753
G3 X39.249 Y14.4026 I-0.15 J0.0
G1 Y14.4163
G3 X39.1784 Y14.5435 I-0.15 J0.0
G1 Y14.5575
G3 X39.0931 Y14.6928 I-0.15 J0.0
G3 X39.0375 Y14.755 I-0.1352 J-0.065
G1 Y14.7691
G3 X38.9669 Y14.8964 I-0.15 J0.0
G1 Y14.9101
G3 X38.9233 Y15.0158 I-0.15 J0.0
G3 X38.9521 Y15.0566 I-0.1063 J0.1058
G3 X39.0229 Y15.1274 I-0.0646 J0.1354
G3 X39.0933 Y15.1977 I-0.0649 J0.1352
G3 X39.1637 Y15.2683 I-0.0649 J0.1352
G3 X39.249 Y15.4036 I-0.0647 J0.1353
G1 Y15.4174
G3 X39.3048 Y15.4798 I-0.0795 J0.1272
G3 X39.3754 Y15.5505 I-0.0647 J0.1353
G3 X39.4457 Y15.6207 I-0.0649 J0.1352
G3 X39.5166 Y15.6916 I-0.0646 J0.1354
G3 X39.5869 Y15.762 I-0.065 J0.1352
G3 X39.6574 Y15.8325 I-0.0647 J0.1353
G3 X39.7278 Y15.903 I-0.0649 J0.1352
G3 X39.7984 Y15.9736 I-0.0647 J0.1353
G3 X39.8689 Y16.0439 I-0.0647 J0.1353
G3 X39.9397 Y16.1147 I-0.0646 J0.1354
G3 X40.0247 Y16.2499 I-0.065 J0.1352
G1 Y16.2636
G3 X40.0807 Y16.3263 I-0.0794 J0.1273
G3 X40.1657 Y16.4615 I-0.065 J0.1352
G1 Y16.5321
G3 X40.1651 Y16.5446 I-0.15 J0.0
G0 Z3.0
G0 X39.9694 Y15.6815
G0 Z0.285
G1 F300.0 Z-0.125
G3 F500.0 X39.5477 Y15.56 I-0.1006 J-0.4435
G1 X39.4947 Y15.5072
G3 X39.4845 Y15.497 I0.316 J-0.3271
G1 X39.4718 Y15.4843
G3 X39.4586 Y15.4713 I0.3119 J-0.331
G1 X39.4563 Y15.469
G3 X39.4488 Y15.4616 I0.3161 J-0.327
G1 X39.4282 Y15.4407
G3 X39.3315 Y15.2949 I0.3236 J-0.3196
G1 X39.3163 Y15.2582
G3 X39.2199 Y14.7655 I0.324 J-0.3192
G1 X39.2608 Y14.6664
G3 X39.3098 Y14.5774 I0.4204 J0.1735
G1 X39.3315 Y14.5249
G3 X39.3804 Y14.4362 I0.4203 J0.1738
G1 X39.3934 Y14.4049
G3 X39.4004 Y14.3881 I0.4234 J0.1661
G1 X39.4024 Y14.3832
G3 X39.4512 Y14.2949 I0.42 J0.1745
G3 X40.3237 Y14.475 I0.4177 J0.18
G1 Y14.571
G1 Y15.1211
G1 Y15.1801
G1 Y15.238
G3 X39.9694 Y15.6815 I-0.4548 J0.0
G0 Z3.0
G0 X44.4499
G0 Z0.285
G1 F300.0 Z-0.125
G1 F500.0 Y15.6239
G3 X44.4496 Y15.6152 I0.1497 J-0.0087
G1 Y15.5445
G1 Y15.4742
G1 Y15.4036
G1 Y15.333
G1 Y15.2626
G1 Y15.192
G1 Y15.1216
G1 Y15.051
G1 Y14.9804
G1 Y14.9101
G1 Y14.8394
G3 X44.4499 Y14.8307 I0.15 J0.0
G1 Y14.7753
G3 X44.4497 Y14.7691 I0.1499 J-0.0062
G1 Y14.6985
G1 Y14.6279
G1 Y14.5637
G3 X44.4496 Y14.5575 I0.1499 J-0.0062
G1 Y14.4869
G3 X44.4499 Y14.4782 I0.15 J0.0
G1 Y14.4224
G3 X44.4497 Y14.4163 I0.1499 J-0.0062
G1 Y14.3457
G1 Y14.2753
G3 X44.4499 Y14.2691 I0.15 J0.0
G1 Y14.2047
G1 Y14.1431
G3 X44.4496 Y14.1343 I0.1497 J-0.0087
G1 Y14.0637
G1 Y13.9931
G1 Y13.9228
G1 Y13.8521
G1 Y13.7815
G1 Y13.7112
G1 Y13.6406
G1 Y13.5699
G1 Y13.4996
G1 Y13.429
G1 Y13.3584
G1 Y13.288
G1 Y13.2174
G1 Y13.1468
G1 Y13.0764
G1 Y13.0058
G1 Y12.9355
G1 Y12.8648
G1 Y12.7942
G1 Y12.7239
G1 Y12.6533
G1 Y12.5827
G1 Y12.5123
G3 X44.5996 Y12.3623 I0.15 J0.0
G1 X45.8691
G3 X46.0191 Y12.5123 I0.0 J0.15
G1 Y12.5829
G1 Y12.6533
G1 Y12.7239
G1 Y12.7945
G1 Y12.8648
G1 Y12.9355
G1 Y13.0061
G1 Y13.0764
G1 Y13.147
G1 Y13.2174
G1 Y13.288
G1 Y13.3586
G1 Y13.429
G1 Y13.4996
G1 Y13.5702
G1 Y13.6406
G1 Y13.7112
G1 Y13.7818
G1 Y13.8521
G1 Y13.9137
G1 X46.0945
G3 X46.1569 Y13.8579 I0.1273 J0.0794
G3 X46.2274 Y13.7874 I0.1352 J0.0649
G3 X46.2979 Y13.7169 I0.1353 J0.0647
G3 X46.354 Y13.6542 I0.1354 J0.0646
G1 Y13.6406
G3 X46.4243 Y13.5135 I0.15 J0.0
G1 Y13.4996
G3 X46.5096 Y13.3643 I0.15 J0.0
G3 X46.5653 Y13.3019 I0.1353 J0.0647
G1 Y13.288
G3 X46.6358 Y13.1608 I0.15 J0.0
G1 Y13.1468
G3 X46.7214 Y13.0113 I0.15 J0.0
G3 X46.7769 Y12.9493 I0.1351 J0.0651
G1 Y12.9355
G3 X46.8475 Y12.8082 I0.15 J0.0
G1 Y12.7942
G3 X46.9326 Y12.659 I0.15 J0.0
G3 X46.9885 Y12.5966 I0.1352 J0.0649
G1 Y12.5827
G3 X47.0737 Y12.4473 I0.15 J0.0
G3 X47.2089 Y12.3623 I0.1352 J0.065
G1 X48.4784
G3 X48.6284 Y12.5123 I0.0 J0.15
G1 Y12.5829
G3 X48.6283 Y12.5891 I-0.15 J0.0
G1 Y12.6533
G3 X48.5577 Y12.7805 I-0.15 J0.0
G1 Y12.7945
G3 X48.4726 Y12.9297 I-0.15 J0.0
G3 X48.4167 Y12.9921 I-0.1352 J-0.0649
G1 Y13.0061
G3 X48.3464 Y13.1332 I-0.15 J0.0
G1 Y13.147
G3 X48.2611 Y13.2824 I-0.15 J0.0
G3 X48.2051 Y13.3447 I-0.1352 J-0.065
G1 Y13.3586
G3 X48.1348 Y13.4857 I-0.15 J0.0
G1 Y13.4996
G3 X48.0495 Y13.6349 I-0.15 J0.0
G3 X47.9938 Y13.6973 I-0.1353 J-0.0647
G1 Y13.7112
G3 X47.9087 Y13.8464 I-0.15 J0.0
G3 X47.8526 Y13.9091 I-0.1354 J-0.0646
G1 Y13.9228
G3 X47.7673 Y14.0581 I-0.15 J0.0
G3 X47.6969 Y14.1286 I-0.1353 J-0.0647
G3 X47.633 Y14.1957 I-0.1352 J-0.0649
G3 X47.7595 Y14.2663 I-0.0007 J0.15
G1 X47.7733
G3 X47.9087 Y14.3517 I0.0 J0.15
G3 X47.9789 Y14.4219 I-0.065 J0.1352
G3 X48.0495 Y14.4925 I-0.0647 J0.1353
G3 X48.1348 Y14.6279 I-0.0647 J0.1353
G1 Y14.6416
G3 X48.2053 Y14.7688 I-0.0795 J0.1272
G1 Y14.7828
G3 X48.2759 Y14.9101 I-0.0794 J0.1273
G1 Y14.9807
G1 Y15.0449
G3 X48.276 Y15.051 I-0.1499 J0.0062
G1 Y15.065
G3 X48.3462 Y15.192 I-0.0798 J0.127
G1 Y15.2626
G1 Y15.3332
G1 Y15.4036
G1 Y15.4655
G3 X48.3465 Y15.4742 I-0.1497 J0.0087
G1 Y15.5448
G3 X48.2759 Y15.6721 I-0.15 J0.0
G1 Y15.6858
G1 Y15.7564
G1 Y15.8267
G1 Y15.8974
G3 X48.2053 Y16.0246 I-0.15 J0.0
G1 Y16.0383
G3 X48.1202 Y16.1736 I-0.15 J0.0
G3 X48.0495 Y16.2443 I-0.1354 J-0.0646
G3 X47.9789 Y16.3149 I-0.1353 J-0.0647
G3 X47.9087 Y16.3851 I-0.1352 J-0.065
G3 X47.7733 Y16.4705 I-0.1354 J-0.0646
G1 X47.7593
G3 X47.6322 Y16.5409 I-0.1271 J-0.0796
G1 X47.6183
G3 X47.491 Y16.6115 I-0.1273 J-0.0794
G1 X47.1246
G3 X46.9974 Y16.6821 I-0.1273 J-0.0794
G1 X44.5996
G3 X44.4496 Y16.5321 I0.0 J-0.15
G1 Y16.4615
G3 X44.4497 Y16.4553 I0.15 J0.0
G1 Y16.3909
G1 Y16.3203
G3 X44.4499 Y16.3141 I0.15 J0.0
G1 Y16.2586
G3 X44.4496 Y16.2499 I0.1497 J-0.0087
G1 Y16.1793
G3 X44.4497 Y16.1731 I0.15 J0.0
G1 Y16.1089
G1 Y16.0383
G3 X44.4499 Y16.0322 I0.15 J0.0
G1 Y15.9677
G1 Y15.8974
G1 Y15.8267
G1 Y15.7561
G1 Y15.6858
G1 Y15.6815
G0 Z3.0
G0 X42.9961 Y7.1204
G0 Z0.285
G1 F300.0 Z-0.125
G3 F500.0 X42.971 Y7.1226 I-0.0251 J-0.1479
G1 X41.9189
G3 X41.8128 Y7.0786 I0.0 J-0.15
G1 X41.0689 Y6.3347
G3 X41.0249 Y6.2286 I0.1061 J-0.1061
G1 Y6.0558
G1 X38.7208
G1 X37.1275 Y7.6493
G1 X36.0696 Y8.7069
G1 X34.5182 Y10.2586
G3 X34.2684 Y10.3621 I-0.2498 J-0.2497
G1 X17.9169
G3 X17.6672 Y10.2586 I0.0 J-0.3532
G1 X14.7932 Y7.3846
G1 X14.4774 Y7.7004
G3 X14.2653 I-0.1061 J-0.1061
G1 X13.346 Y6.7812
G3 Y6.5691 I0.1061 J-0.1061
G1 X14.4771 Y5.438
G3 X14.6892 I0.1061 J0.1061
G1 X15.6084 Y6.3572
G3 Y6.5694 I-0.1061 J0.1061
G1 X15.2927 Y6.8851
G1 X18.0632 Y9.6557
G1 X34.1221
G1 X35.5701 Y8.2074
G1 X36.628 Y7.1498
G1 X38.3247 Y5.4528
G3 X38.5745 Y5.3494 I0.2498 J0.2497
G1 X41.0249
G1 Y5.1765
G3 X41.0689 Y5.0704 I0.15 J0.0
G1 X41.8128 Y4.3265
G3 X41.9189 Y4.2826 I0.1061 J0.1061
G1 X42.971
G3 X43.077 Y4.3265 I0.0 J0.15
G1 X43.821 Y5.0704
G3 X43.8649 Y5.1765 I-0.1061 J0.1061
G1 Y6.2286
G3 X43.821 Y6.3347 I-0.15 J0.0
G1 X43.077 Y7.0786
G3 X42.9961 Y7.1204 I-0.1061 J-0.1061
G0 Z3.0
G0 X35.624 Y12.4247
G0 Z0.285
G1 F300.0 Z-0.125
G3 F500.0 X35.6522 Y12.5123 I-0.1218 J0.0876
G1 Y12.5829
G3 X35.582 Y12.7099 I-0.15 J0.0
G1 Y12.7239
G1 Y12.7945
G3 X35.5114 Y12.9218 I-0.15 J0.0
G1 Y12.9355
G3 X35.4408 Y13.0627 I-0.15 J0.0
G1 Y13.0764
G1 Y13.147
G3 X35.3703 Y13.2742 I-0.15 J0.0
G1 Y13.288
G1 Y13.3586
G3 X35.2998 Y13.4858 I-0.15 J0.0
G1 Y13.4996
G1 Y13.5702
G3 X35.2293 Y13.6974 I-0.15 J0.0
G1 Y13.7112
G1 Y13.7818
G3 X35.1587 Y13.9091 I-0.15 J0.0
G1 Y13.9228
G1 Y13.9934
G3 X35.0882 Y14.1206 I-0.15 J0.0
G1 Y14.1279
G3 X35.0883 Y14.1341 I-0.1499 J0.0062
G1 Y14.2047
G3 X35.0177 Y14.332 I-0.15 J0.0
G1 Y14.3459
G1 Y14.4163
G3 X34.9472 Y14.5435 I-0.15 J0.0
G1 Y14.5575
G1 Y14.6279
G3 X34.8766 Y14.7551 I-0.15 J0.0
G1 Y14.7691
G1 Y14.8394
G3 X34.8061 Y14.9666 I-0.15 J0.0
G1 Y14.9807
G3 X34.7355 Y15.1079 I-0.15 J0.0
G1 Y15.1129
G3 X34.7358 Y15.1216 I-0.1497 J0.0087
G1 Y15.1922
G3 X34.6652 Y15.3195 I-0.15 J0.0
G1 Y15.3332
G3 X34.665 Y15.3394 I-0.15 J0.0
G1 Y15.4036
G3 X34.5946 Y15.5308 I-0.15 J0.0
G1 Y15.5448
G1 Y15.6152
G3 X34.5241 Y15.7423 I-0.15 J0.0
G1 Y15.7564
G1 Y15.8267
G3 X34.4535 Y15.954 I-0.15 J0.0
G1 Y15.968
G1 Y16.0383
G3 X34.383 Y16.1655 I-0.15 J0.0
G1 Y16.1795
G1 Y16.2499
G3 X34.3125 Y16.3771 I-0.15 J0.0
G1 Y16.3909
G1 Y16.4615
G3 X34.2272 Y16.5968 I-0.15 J0.0
G3 X34.0919 Y16.6821 I-0.1353 J-0.0647
G1 X32.6111
G3 X32.4757 Y16.5968 I0.0 J-0.15
G3 X32.3904 Y16.4615 I0.0647 J-0.1353
G1 Y16.3909
G1 Y16.3771
G3 X32.32 Y16.2499 I0.0795 J-0.1272
G1 Y16.1793
G1 Y16.1655
G3 X32.2495 Y16.0383 I0.0795 J-0.1272
G1 Y15.9677
G1 Y15.954
G3 X32.1789 Y15.8267 I0.0794 J-0.1273
G1 Y15.7561
G1 Y15.7423
G3 X32.1084 Y15.6152 I0.0795 J-0.1272
G1 Y15.5445
G1 Y15.5308
G3 X32.0378 Y15.4036 I0.0794 J-0.1273
G1 Y15.333
G1 Y15.3194
G3 X31.9673 Y15.1922 I0.0795 J-0.1272
G1 Y15.1278
G3 X31.9672 Y15.1216 I0.1499 J-0.0062
G1 Y15.1077
G3 X31.8969 Y14.9807 I0.0798 J-0.127
G1 Y14.9667
G3 X31.8263 Y14.8394 I0.0794 J-0.1273
G1 Y14.7688
G1 Y14.7552
G3 X31.7556 Y14.6279 I0.0793 J-0.1273
G1 Y14.5572
G1 Y14.5433
G3 X31.6853 Y14.4163 I0.0798 J-0.127
G1 Y14.3521
G3 X31.6852 Y14.3459 I0.1499 J-0.0062
G1 Y14.3319
G3 X31.6147 Y14.2047 I0.0795 J-0.1272
G1 Y14.1341
G1 Y14.1206
G3 X31.5442 Y13.9934 I0.0795 J-0.1272
G1 Y13.9228
G1 Y13.9091
G3 X31.4736 Y13.7818 I0.0794 J-0.1273
G1 Y13.7112
G1 Y13.6974
G3 X31.4032 Y13.5702 I0.0795 J-0.1272
G1 Y13.4996
G1 Y13.4858
G3 X31.3327 Y13.3586 I0.0795 J-0.1272
G1 Y13.288
G1 Y13.2742
G3 X31.2622 Y13.147 I0.0795 J-0.1272
G1 Y13.0764
G1 Y13.0627
G3 X31.1916 Y12.9355 I0.0794 J-0.1273
G1 Y12.9218
G3 X31.121 Y12.7945 I0.0794 J-0.1273
G1 Y12.7239
G1 Y12.71
G3 X31.0506 Y12.5829 I0.0796 J-0.1271
G1 Y12.5123
G3 X31.2006 Y12.3623 I0.15 J0.0
G1 X32.4701
G3 X32.6201 Y12.5123 I0.0 J0.15
G1 Y12.5262
G3 X32.6904 Y12.6533 I-0.0796 J0.1271
G1 Y12.7239
G1 Y12.7945
G1 Y12.8082
G3 X32.7611 Y12.9355 I-0.0794 J0.1273
G1 Y12.9968
G1 X33.9419
G1 Y12.9355
G3 X34.0125 Y12.8082 I0.15 J0.0
G1 Y12.7942
G1 Y12.7239
G1 Y12.6533
G3 X34.083 Y12.5261 I0.15 J0.0
G1 Y12.5123
G3 X34.233 Y12.3623 I0.15 J0.0
G1 X35.5022
G3 X35.624 Y12.4247 I0.0 J0.15
G0 Z3.0
G0 X30.9979 Y12.5095
G0 Z0.285
G1 F300.0 Z-0.125
G3 F500.0 Y12.5123 I-0.15 J0.0028
G1 Y12.5829
G1 Y12.6533
G1 Y12.7239
G1 Y12.7945
G1 Y12.8648
G1 Y12.9355
G1 Y13.0061
G1 Y13.0764
G1 Y13.147
G1 Y13.2174
G1 Y13.288
G1 Y13.3586
G1 Y13.429
G1 Y13.4996
G1 Y13.5702
G1 Y13.6406
G1 Y13.7112
G1 Y13.7818
G1 Y13.8521
G1 Y13.9228
G1 Y13.9934
G1 Y14.0637
G1 Y14.1343
G1 Y14.2047
G1 Y14.2753
G1 Y14.3459
G1 Y14.4163
G1 Y14.4869
G1 Y14.5575
G1 Y14.6279
G1 Y14.6985
G1 Y14.7691
G1 Y14.8394
G1 Y14.9101
G1 Y14.9807
G1 Y15.051
G1 Y15.1216
G1 Y15.1922
G1 Y15.2626
G1 Y15.3332
G1 Y15.4036
G1 Y15.4742
G1 Y15.5448
G1 Y15.6152
G1 Y15.6858
G1 Y15.7564
G1 Y15.8267
G1 Y15.8974
G1 Y15.968
G1 Y16.0383
G1 Y16.1089
G1 Y16.1795
G1 Y16.2437
G3 X30.998 Y16.2499 I-0.1499 J0.0062
G1 Y16.3205
G1 Y16.3909
G1 Y16.4615
G1 Y16.5321
G3 X30.848 Y16.6821 I-0.15 J0.0
G1 X29.226
G3 X29.076 Y16.5321 I0.0 J-0.15
G1 Y16.4615
G1 Y16.3909
G1 Y16.3771
G3 X29.0055 Y16.2499 I0.0795 J-0.1272
G1 Y16.1793
G1 Y16.1089
G1 Y16.0952
G3 X28.9349 Y15.968 I0.0794 J-0.1273
G1 Y15.8974
G1 Y15.8837
G3 X28.8643 Y15.7564 I0.0794 J-0.1273
G1 Y15.6858
G1 Y15.6152
G1 Y15.6014
G3 X28.7938 Y15.4742 I0.0795 J-0.1272
G1 Y15.4036
G1 Y15.333
G1 Y15.3195
G3 X28.7232 Y15.1922 I0.0794 J-0.1273
G1 Y15.1216
G1 Y15.051
G1 Y15.0371
G3 X28.653 Y14.9101 I0.0798 J-0.127
G1 Y14.8394
G1 Y14.7688
G1 Y14.7552
G3 X28.6003 Y14.6992 I0.0793 J-0.1273
G3 X28.5295 Y14.8258 I-0.15 J-0.0007
G1 Y14.8394
G1 Y14.9101
G3 X28.4592 Y15.0372 I-0.15 J0.0
G1 Y15.051
G1 Y15.1216
G1 Y15.1922
G3 X28.3887 Y15.3194 I-0.15 J0.0
G1 Y15.3332
G1 Y15.4036
G1 Y15.4742
G3 X28.3182 Y15.6014 I-0.15 J0.0
G1 Y15.6152
G1 Y15.6858
G1 Y15.7564
G3 X28.2476 Y15.8837 I-0.15 J0.0
G1 Y15.8974
G1 Y15.968
G3 X28.177 Y16.0952 I-0.15 J0.0
G1 Y16.1089
G1 Y16.1795
G1 Y16.2499
G3 X28.1065 Y16.3771 I-0.15 J0.0
G1 Y16.3909
G1 Y16.4615
G1 Y16.5321
G3 X27.9565 Y16.6821 I-0.15 J0.0
G1 X26.3345
G3 X26.1845 Y16.5321 I0.0 J-0.15
G1 Y16.4615
G1 Y16.3909
G1 Y16.3203
G1 Y16.2499
G3 X26.1846 Y16.2437 I0.15 J0.0
G1 Y16.1793
G1 Y16.1089
G1 Y16.0383
G1 Y15.9677
G1 Y15.8974
G1 Y15.8267
G1 Y15.7561
G1 Y15.6858
G1 Y15.6152
G1 Y15.5445
G1 Y15.4742
G1 Y15.4036
G1 Y15.333
G1 Y15.2626
G1 Y15.192
G1 Y15.1216
G1 Y15.051
G1 Y14.9804
G1 Y14.9101
G1 Y14.8394
G1 Y14.7688
G1 Y14.6985
G1 Y14.6279
G1 Y14.5572
G1 Y14.4869
G1 Y14.4163
G1 Y14.3457
G1 Y14.2753
G1 Y14.2047
G1 Y14.1341
G1 Y14.0637
G1 Y13.9931
G1 Y13.9228
G1 Y13.8521
G1 Y13.7815
G1 Y13.7112
G1 Y13.6406
G1 Y13.57
G1 Y13.4996
G1 Y13.429
G1 Y13.3584
G1 Y13.288
G1 Y13.2174
G1 Y13.1468
G1 Y13.0764
G1 Y13.0058
G1 Y12.9355
G1 Y12.8648
G1 Y12.7942
G1 Y12.7239
G1 Y12.6533
G1 Y12.5827
G1 Y12.5123
G3 X26.3346 Y12.3623 I0.15 J0.0
G1 X27.3219
G3 X27.4719 Y12.5123 I0.0 J0.15
G1 Y12.5829
G1 Y12.6533
G1 Y12.7239
G1 Y12.7945
G1 Y12.8648
G1 Y12.9355
G1 Y13.0061
G1 Y13.0764
G1 Y13.147
G1 Y13.2174
G1 Y13.288
G1 Y13.3586
G1 Y13.429
G1 Y13.4996
G1 Y13.5702
G1 Y13.6406
G1 Y13.7112
G1 Y13.7818
G1 Y13.8521
G1 Y13.9228
G1 Y13.9934
G1 Y14.0637
G1 Y14.1343
G1 Y14.2047
G1 Y14.2753
G1 Y14.3452
G3 X27.5243 Y14.2892 I0.1321 J0.0711
G1 Y14.2753
G1 Y14.2047
G3 X27.5949 Y14.0774 I0.15 J0.0
G1 Y14.0637
G1 Y13.9931
G1 Y13.9228
G3 X27.6655 Y13.7955 I0.15 J0.0
G1 Y13.7815
G1 Y13.7112
G1 Y13.6406
G3 X27.736 Y13.5134 I0.15 J0.0
G1 Y13.4996
